; HEADER_BLOCK_START
; generated by OrcaSlicer 2.3.0 on 2025-06-03 at 18:22:24
; total layer number: 237
;_GP_TOTAL_LAYER_NUMBER_PLACEHOLDER
; filament_density: 1.24
; filament_diameter: 1.75
; max_z_height: 47.40
; HEADER_BLOCK_END

; THUMBNAIL_BLOCK_START

;
; THUMBNAIL_BLOCK_END

; external perimeters extrusion width = 0.42mm
; perimeters extrusion width = 0.45mm
; infill extrusion width = 0.45mm
; solid infill extrusion width = 0.42mm
; top infill extrusion width = 0.42mm
; first layer extrusion width = 0.50mm

; EXECUTABLE_BLOCK_START
M73 P0 R88
M106 S0
M106 P2 S0
;TYPE:Custom
M190 S60
M104 S220
G90
M83
G1 Z5 F6000
G1 E-0.2 F800
G1 X110 Y-110 F6000
G1 E2 F800
G1 Y-110 X55 Z0.25 F4800
G1 X-55 E8 F2400
G1 Y-109.6 F2400
G1 X55 E5 F2400
G1 Y-110 X55 Z0.45 F4800
M73 P0 R87
G1 X-55 E8 F2400
G1 Y-109.6 F2400
G1 X55 E5 F2400
G92 E0
G90
G21
M83 ; use relative distances for extrusion
; filament start gcode
;right_extruder_material: PLA
SET_PRESSURE_ADVANCE ADVANCE=0.025; Override pressure advance value
M106 S0
M106 P2 S0
;LAYER_CHANGE
;Z:0.2
;HEIGHT:0.2
;BEFORE_LAYER_CHANGE
;0.2
G1 E-3 F3000
;AFTER_LAYER_CHANGE
;0.2
;_SET_FAN_SPEED_CHANGING_LAYER
SET_VELOCITY_LIMIT ACCEL=500
G1 X-24.393 Y-24.211 F30000
G1 Z.6
G1 Z.2
G1 E3 F2400
;TYPE:Skirt
;WIDTH:0.5
G1 F3000
G1 X-23.516 Y-25.005 E.04406
G1 X-22.568 Y-25.552 E.04076
G1 X-21.45 Y-25.943 E.04411
G1 X-20.155 Y-26.12 E.04871
G1 X20.158 Y-26.12 E1.50149
G1 X21.298 Y-25.978 E.04277
G1 X22.344 Y-25.65 E.04084
G1 X23.387 Y-25.094 E.04402
G1 X24.24 Y-24.409 E.04074
G1 X25.005 Y-23.516 E.0438
G1 X25.552 Y-22.568 E.04076
G1 X25.943 Y-21.45 E.04411
G1 X26.101 Y-20.486 E.03641
G1 X26.124 Y20 E1.50794
G1 X26.054 Y20.879 E.03286
G1 X25.771 Y22.03 E.04414
G1 X25.316 Y23.026 E.04076
G1 X24.634 Y23.993 E.04408
G1 X23.516 Y25.005 E.05618
G1 X22.568 Y25.552 E.04076
G1 X21.45 Y25.943 E.04411
G1 X20 Y26.124 E.05444
G1 X-20 Y26.124 E1.48985
G1 X-20.879 Y26.054 E.03286
G1 X-22.03 Y25.771 E.04414
G1 X-23.026 Y25.316 E.04076
G1 X-23.993 Y24.634 E.04408
G1 X-25.005 Y23.516 E.05618
G1 X-25.552 Y22.568 E.04076
G1 X-25.943 Y21.45 E.04411
G1 X-26.124 Y20 E.05444
G1 X-26.124 Y-20 E1.48985
G1 X-26.054 Y-20.879 E.03286
G1 X-25.771 Y-22.03 E.04414
G1 X-25.316 Y-23.026 E.04076
G1 X-24.634 Y-23.993 E.04408
G1 X-24.423 Y-24.184 E.01063
G1 X-24.121 Y-23.849 F30000
G1 F3000
G1 X-23.241 Y-24.641 E.04409
G1 X-22.391 Y-25.131 E.03654
G1 X-21.327 Y-25.503 E.042
G1 X-20.128 Y-25.663 E.04504
G1 X20.131 Y-25.663 E1.49951
G1 X21.216 Y-25.528 E.04073
G1 X22.154 Y-25.234 E.03661
G1 X23.147 Y-24.705 E.04191
G1 X23.912 Y-24.091 E.03652
G1 X24.641 Y-23.241 E.0417
G1 X25.131 Y-22.391 E.03654
G1 X25.503 Y-21.327 E.042
G1 X25.645 Y-20.454 E.03292
G1 X25.667 Y20 E1.50677
G1 X25.604 Y20.798 E.02982
G1 X25.334 Y21.894 E.04203
G1 X24.927 Y22.786 E.03653
G1 X24.278 Y23.707 E.04197
G1 X23.241 Y24.641 E.05197
G1 X22.391 Y25.131 E.03654
G1 X21.327 Y25.503 E.042
G1 X20 Y25.667 E.0498
G1 X-20 Y25.667 E1.48985
G1 X-20.798 Y25.604 E.02982
G1 X-21.894 Y25.334 E.04203
G1 X-22.786 Y24.927 E.03653
G1 X-23.707 Y24.278 E.04197
G1 X-24.641 Y23.241 E.05197
G1 X-25.131 Y22.391 E.03654
G1 X-25.503 Y21.327 E.042
G1 X-25.667 Y20 E.0498
G1 X-25.667 Y-20 E1.48985
G1 X-25.604 Y-20.798 E.02982
G1 X-25.334 Y-21.894 E.04203
G1 X-24.927 Y-22.786 E.03653
G1 X-24.278 Y-23.707 E.04197
G1 X-24.15 Y-23.822 E.00639
G1 E-3
;WIPE_START
G1 X-23.241 Y-24.641
G1 X-22.568 Y-25.028
;WIPE_END
G1 X-17.483 Y-19.337 Z.6 F30000
G1 X19.975 Y22.582 Z.6
G1 Z.2
G1 E3 F2400
;TYPE:Inner wall
G1 F3000
G1 X-19.97 Y22.582 E1.48783
G1 X-20.295 Y22.559 E.01211
G1 X-20.614 Y22.501 E.01209
G1 X-20.922 Y22.405 E.012
G1 X-21.213 Y22.272 E.01191
G1 X-21.483 Y22.106 E.01184
G1 X-21.735 Y21.904 E.01201
G1 X-21.955 Y21.677 E.01178
G1 X-22.147 Y21.424 E.01183
G1 X-22.307 Y21.145 E.01198
G1 X-22.432 Y20.849 E.01196
G1 X-22.518 Y20.543 E.01182
G1 X-22.568 Y20.212 E.01248
G1 X-22.582 Y19.975 E.00883
G1 X-22.582 Y-19.97 E1.48783
G1 X-22.559 Y-20.295 E.01211
G1 X-22.501 Y-20.614 E.01209
G1 X-22.405 Y-20.922 E.012
G1 X-22.272 Y-21.213 E.01191
G1 X-22.106 Y-21.483 E.01184
G1 X-21.904 Y-21.735 E.01201
G1 X-21.677 Y-21.955 E.01178
G1 X-21.424 Y-22.147 E.01183
G1 X-21.145 Y-22.307 E.01198
G1 X-20.849 Y-22.432 E.01196
G1 X-20.543 Y-22.518 E.01182
G1 X-20.212 Y-22.568 E.01248
G1 X-19.975 Y-22.582 E.00883
G1 X20.145 Y-22.571 E1.49435
G1 X20.614 Y-22.501 E.01766
G1 X20.922 Y-22.405 E.01199
G1 X21.213 Y-22.272 E.01191
G1 X21.483 Y-22.106 E.01184
G1 X21.735 Y-21.904 E.01201
G1 X21.955 Y-21.677 E.01178
G1 X22.147 Y-21.424 E.01183
G1 X22.307 Y-21.145 E.01198
G1 X22.432 Y-20.849 E.01196
G1 X22.516 Y-20.551 E.01152
G1 X22.576 Y-20.084 E.01755
G1 X22.582 Y19.971 E1.49186
G1 X22.559 Y20.295 E.01211
G1 X22.501 Y20.614 E.01209
G1 X22.405 Y20.922 E.01199
G1 X22.272 Y21.213 E.01191
G1 X22.106 Y21.483 E.01184
G1 X21.904 Y21.735 E.01201
G1 X21.677 Y21.955 E.01178
G1 X21.424 Y22.147 E.01183
G1 X21.145 Y22.307 E.01199
G1 X20.849 Y22.432 E.01196
G1 X20.543 Y22.518 E.01182
G1 X20.212 Y22.568 E.01248
G1 X20.015 Y22.579 E.00735
G1 X19.988 Y23.039 F30000
;TYPE:Outer wall
G1 F3000
G1 X-19.986 Y23.039 E1.48891
G1 X-20.352 Y23.013 E.01364
G1 X-20.724 Y22.946 E.01409
G1 X-21.085 Y22.833 E.01412
G1 X-21.428 Y22.676 E.01404
G1 X-21.747 Y22.48 E.01395
G1 X-22.043 Y22.243 E.01412
G1 X-22.303 Y21.975 E.01389
G1 X-22.528 Y21.676 E.01394
G1 X-22.718 Y21.349 E.0141
G1 X-22.864 Y21 E.01409
G1 X-22.965 Y20.64 E.01393
G1 X-23.023 Y20.26 E.01432
G1 X-23.039 Y19.988 E.01012
G1 X-23.039 Y-19.986 E1.48891
G1 X-23.013 Y-20.352 E.01364
G1 X-22.946 Y-20.724 E.01409
G1 X-22.833 Y-21.086 E.01412
G1 X-22.676 Y-21.428 E.01403
G1 X-22.48 Y-21.747 E.01395
G1 X-22.243 Y-22.043 E.01412
G1 X-21.975 Y-22.303 E.01389
G1 X-21.676 Y-22.528 E.01394
G1 X-21.349 Y-22.718 E.0141
G1 X-21 Y-22.864 E.01409
G1 X-20.64 Y-22.965 E.01393
G1 X-20.26 Y-23.023 E.01432
G1 X-19.989 Y-23.039 E.01011
G1 X20.163 Y-23.028 E1.4955
G1 X20.35 Y-23.014 E.00698
G1 X20.724 Y-22.946 E.01415
G1 X21.085 Y-22.833 E.01412
G1 X21.428 Y-22.676 E.01404
G1 X21.747 Y-22.48 E.01395
G1 X22.043 Y-22.243 E.01412
G1 X22.303 Y-21.975 E.01389
G1 X22.528 Y-21.676 E.01394
G1 X22.718 Y-21.349 E.0141
G1 X22.864 Y-21 E.01409
G1 X22.965 Y-20.643 E.01383
G1 X23.033 Y-20.113 E.01989
G1 X23.039 Y19.986 E1.49354
G1 X23.013 Y20.352 E.01364
G1 X22.946 Y20.724 E.01409
G1 X22.833 Y21.085 E.01412
G1 X22.676 Y21.428 E.01404
G1 X22.48 Y21.747 E.01395
G1 X22.243 Y22.043 E.01412
G1 X21.975 Y22.303 E.01389
G1 X21.676 Y22.528 E.01394
G1 X21.349 Y22.718 E.0141
G1 X21 Y22.864 E.01409
G1 X20.64 Y22.965 E.01393
G1 X20.26 Y23.023 E.01432
G1 X20.028 Y23.036 E.00863
G1 E-3
;WIPE_START
G1 X18.028 Y23.036
;WIPE_END
G1 X18.762 Y15.439 Z.6 F30000
G1 X22.268 Y-20.884 Z.6
G1 Z.2
G1 E3 F2400
;TYPE:Bottom surface
;WIDTH:0.501769
G1 F3600
G1 X21.498 Y-21.654 E.04071
G1 X21.285 Y-21.825 E.0102
G1 X21.051 Y-21.969 E.0103
G1 X20.799 Y-22.084 E.01036
G1 X20.538 Y-22.166 E.01024
G1 X20.302 Y-22.201 E.00888
G1 X22.202 Y-20.302 E.10044
G1 X22.233 Y-20.062 E.00905
G1 X22.233 Y-19.622 E.01645
G1 X19.626 Y-22.228 E.13783
G1 X18.977 Y-22.229 E.02427
G1 X22.233 Y-18.973 E.17216
G1 X22.233 Y-18.324 E.02427
G1 X18.328 Y-22.229 E.20649
G1 X17.679 Y-22.229 E.02427
G1 X22.233 Y-17.675 E.24082
G1 X22.233 Y-17.026 E.02427
G1 X17.03 Y-22.229 E.27514
G1 X16.381 Y-22.229 E.02427
G1 X22.233 Y-16.377 E.30947
G1 X22.234 Y-15.728 E.02427
G1 X15.732 Y-22.229 E.3438
G1 X15.083 Y-22.23 E.02427
G1 X22.234 Y-15.079 E.37812
G1 X22.234 Y-14.43 E.02427
G1 X14.434 Y-22.23 E.41245
G1 X13.785 Y-22.23 E.02427
G1 X22.234 Y-13.781 E.44678
G1 X22.234 Y-13.132 E.02427
G1 X13.136 Y-22.23 E.4811
G1 X12.486 Y-22.23 E.02427
G1 X22.234 Y-12.483 E.51543
G1 X22.234 Y-11.834 E.02427
G1 X11.837 Y-22.23 E.54976
G1 X11.188 Y-22.231 E.02427
G1 X22.234 Y-11.185 E.58409
G1 X22.234 Y-10.536 E.02427
G1 X10.539 Y-22.231 E.61841
G1 X9.89 Y-22.231 E.02427
G1 X22.234 Y-9.887 E.65274
G1 X22.234 Y-9.238 E.02427
G1 X9.241 Y-22.231 E.68707
G1 X8.592 Y-22.231 E.02427
G1 X22.235 Y-8.589 E.72139
G1 X22.235 Y-7.94 E.02427
G1 X7.943 Y-22.231 E.75572
G1 X7.294 Y-22.232 E.02427
G1 X22.235 Y-7.291 E.79005
G1 X22.235 Y-6.642 E.02427
G1 X6.645 Y-22.232 E.82437
G1 X5.996 Y-22.232 E.02427
G1 X22.235 Y-5.993 E.8587
G1 X22.235 Y-5.344 E.02427
G1 X5.347 Y-22.232 E.89303
G1 X4.697 Y-22.232 E.02427
G1 X22.235 Y-4.695 E.92736
G1 X22.235 Y-4.046 E.02427
G1 X4.048 Y-22.232 E.96168
G1 X3.399 Y-22.233 E.02427
G1 X22.235 Y-3.397 E.99601
G1 X22.235 Y-2.748 E.02427
G1 X2.75 Y-22.233 E1.03034
G1 X2.101 Y-22.233 E.02427
G1 X22.236 Y-2.099 E1.06466
G1 X22.236 Y-1.45 E.02427
G1 X1.452 Y-22.233 E1.09899
G1 X.803 Y-22.233 E.02427
G1 X22.236 Y-.801 E1.13332
G1 X22.236 Y-.152 E.02427
G1 X.154 Y-22.233 E1.16764
G1 X-.495 Y-22.234 E.02427
G1 X22.236 Y.497 E1.20197
G1 X22.236 Y1.146 E.02427
G1 X-1.144 Y-22.234 E1.2363
G1 X-1.793 Y-22.234 E.02427
G1 X22.236 Y1.795 E1.27063
G1 X22.236 Y2.444 E.02427
G1 X-2.442 Y-22.234 E1.30495
G1 X-3.091 Y-22.234 E.02427
G1 X22.236 Y3.093 E1.33928
G1 X22.236 Y3.742 E.02427
G1 X-3.741 Y-22.235 E1.37361
G1 X-4.39 Y-22.235 E.02427
G1 X22.236 Y4.391 E1.40793
G1 X22.237 Y5.04 E.02427
G1 X-5.039 Y-22.235 E1.44226
G1 X-5.688 Y-22.235 E.02427
G1 X22.237 Y5.689 E1.47659
G1 X22.237 Y6.338 E.02427
G1 X-6.337 Y-22.235 E1.51091
G1 X-6.986 Y-22.235 E.02427
M73 P1 R87
G1 X22.237 Y6.987 E1.54524
G1 X22.237 Y7.636 E.02427
G1 X-7.635 Y-22.236 E1.57957
G1 X-8.284 Y-22.236 E.02427
G1 X22.237 Y8.285 E1.6139
G1 X22.237 Y8.934 E.02427
G1 X-8.933 Y-22.236 E1.64822
G1 X-9.582 Y-22.236 E.02427
G1 X22.237 Y9.583 E1.68255
G1 X22.237 Y10.232 E.02427
G1 X-10.231 Y-22.236 E1.71688
G1 X-10.88 Y-22.236 E.02427
G1 X22.237 Y10.881 E1.7512
G1 X22.238 Y11.53 E.02427
G1 X-11.529 Y-22.237 E1.78553
G1 X-12.179 Y-22.237 E.02427
G1 X22.238 Y12.179 E1.81986
G1 X22.238 Y12.828 E.02427
G1 X-12.828 Y-22.237 E1.85418
G1 X-13.477 Y-22.237 E.02427
G1 X22.238 Y13.477 E1.88851
G1 X22.238 Y14.126 E.02427
G1 X-14.126 Y-22.237 E1.92284
G1 X-14.775 Y-22.237 E.02427
G1 X22.238 Y14.775 E1.95717
G1 X22.238 Y15.424 E.02427
G1 X-15.424 Y-22.238 E1.99149
G1 X-16.073 Y-22.238 E.02427
G1 X22.238 Y16.074 E2.02582
G1 X22.238 Y16.723 E.02427
G1 X-16.722 Y-22.238 E2.06015
G1 X-17.371 Y-22.238 E.02427
M73 P1 R86
G1 X22.238 Y17.372 E2.09447
G1 X22.238 Y18.021 E.02427
G1 X-18.02 Y-22.238 E2.1288
G1 X-18.669 Y-22.238 E.02427
G1 X22.239 Y18.67 E2.16313
G1 X22.239 Y19.319 E.02427
G1 X-19.318 Y-22.239 E2.19746
G1 X-19.967 Y-22.239 E.02427
G1 X22.238 Y19.967 E2.23175
G1 X22.218 Y20.252 E.0107
G1 X22.165 Y20.542 E.01103
G1 X-20.54 Y-22.163 E2.25815
G1 X-20.736 Y-22.108 E.00759
G1 X-21.014 Y-21.987 E.01134
G1 X21.987 Y21.013 E2.27378
G1 X21.825 Y21.285 E.01184
G1 X21.729 Y21.405 E.00572
G1 X-21.406 Y-21.73 E2.2809
G1 X-21.65 Y-21.504 E.01245
G1 X-21.729 Y-21.405 E.00474
G1 X21.406 Y21.73 E2.2809
G1 X21.234 Y21.86 E.00806
G1 X21.014 Y21.987 E.0095
G1 X-21.987 Y-21.013 E2.27378
G1 X-22.084 Y-20.799 E.00881
G1 X-22.165 Y-20.542 E.01005
G1 X20.54 Y22.163 E2.25815
G1 X20.177 Y22.227 E.01381
G1 X19.967 Y22.239 E.00783
G1 X-22.238 Y-19.967 E2.23175
G1 X-22.239 Y-19.319 E.02424
G1 X19.319 Y22.239 E2.19747
G1 X18.67 Y22.239 E.02426
G1 X-22.239 Y-18.67 E2.16316
G1 X-22.239 Y-18.021 E.02426
G1 X18.021 Y22.239 E2.12884
G1 X17.372 Y22.239 E.02426
G1 X-22.239 Y-17.372 E2.09453
G1 X-22.239 Y-16.723 E.02426
G1 X16.723 Y22.239 E2.06022
G1 X16.074 Y22.239 E.02426
G1 X-22.239 Y-16.074 E2.02591
G1 X-22.239 Y-15.425 E.02426
G1 X15.425 Y22.239 E1.99159
G1 X14.776 Y22.239 E.02426
G1 X-22.239 Y-14.776 E1.95728
G1 X-22.239 Y-14.127 E.02426
G1 X14.127 Y22.239 E1.92297
G1 X13.478 Y22.239 E.02426
G1 X-22.239 Y-13.478 E1.88865
G1 X-22.239 Y-12.83 E.02426
G1 X12.83 Y22.239 E1.85434
G1 X12.181 Y22.239 E.02426
G1 X-22.239 Y-12.181 E1.82003
G1 X-22.239 Y-11.532 E.02426
G1 X11.532 Y22.239 E1.78571
G1 X10.883 Y22.239 E.02426
G1 X-22.239 Y-10.883 E1.7514
G1 X-22.239 Y-10.234 E.02426
G1 X10.234 Y22.239 E1.71709
G1 X9.585 Y22.239 E.02426
G1 X-22.239 Y-9.585 E1.68277
G1 X-22.239 Y-8.936 E.02426
G1 X8.936 Y22.239 E1.64846
G1 X8.287 Y22.239 E.02426
G1 X-22.239 Y-8.287 E1.61415
G1 X-22.239 Y-7.638 E.02426
G1 X7.638 Y22.239 E1.57984
G1 X6.989 Y22.239 E.02426
G1 X-22.239 Y-6.989 E1.54552
G1 X-22.239 Y-6.34 E.02426
G1 X6.34 Y22.239 E1.51121
G1 X5.692 Y22.239 E.02426
G1 X-22.239 Y-5.692 E1.4769
G1 X-22.239 Y-5.043 E.02426
G1 X5.043 Y22.239 E1.44258
G1 X4.394 Y22.239 E.02426
G1 X-22.239 Y-4.394 E1.40827
G1 X-22.239 Y-3.745 E.02426
G1 X3.745 Y22.239 E1.37396
G1 X3.096 Y22.239 E.02426
G1 X-22.239 Y-3.096 E1.33964
G1 X-22.239 Y-2.447 E.02426
G1 X2.447 Y22.239 E1.30533
G1 X1.798 Y22.239 E.02426
G1 X-22.239 Y-1.798 E1.27102
M73 P2 R86
G1 X-22.239 Y-1.149 E.02426
G1 X1.149 Y22.239 E1.2367
G1 X.5 Y22.239 E.02426
G1 X-22.239 Y-.5 E1.20239
G1 X-22.239 Y.149 E.02426
G1 X-.149 Y22.239 E1.16808
G1 X-.798 Y22.239 E.02426
G1 X-22.239 Y.798 E1.13377
G1 X-22.239 Y1.446 E.02426
G1 X-1.446 Y22.239 E1.09945
G1 X-2.095 Y22.239 E.02426
G1 X-22.239 Y2.095 E1.06514
G1 X-22.239 Y2.744 E.02426
G1 X-2.744 Y22.239 E1.03083
G1 X-3.393 Y22.239 E.02426
G1 X-22.239 Y3.393 E.99651
G1 X-22.239 Y4.042 E.02426
G1 X-4.042 Y22.239 E.9622
G1 X-4.691 Y22.239 E.02426
G1 X-22.239 Y4.691 E.92789
G1 X-22.239 Y5.34 E.02426
G1 X-5.34 Y22.239 E.89357
G1 X-5.989 Y22.239 E.02426
G1 X-22.239 Y5.989 E.85926
G1 X-22.239 Y6.638 E.02426
G1 X-6.638 Y22.239 E.82495
G1 X-7.287 Y22.239 E.02426
G1 X-22.239 Y7.287 E.79063
G1 X-22.239 Y7.936 E.02426
G1 X-7.936 Y22.239 E.75632
G1 X-8.584 Y22.239 E.02426
G1 X-22.239 Y8.584 E.72201
G1 X-22.239 Y9.233 E.02426
G1 X-9.233 Y22.239 E.6877
G1 X-9.882 Y22.239 E.02426
G1 X-22.239 Y9.882 E.65338
G1 X-22.239 Y10.531 E.02426
G1 X-10.531 Y22.239 E.61907
G1 X-11.18 Y22.239 E.02426
G1 X-22.239 Y11.18 E.58476
G1 X-22.239 Y11.829 E.02426
G1 X-11.829 Y22.239 E.55044
G1 X-12.478 Y22.239 E.02426
G1 X-22.239 Y12.478 E.51613
G1 X-22.239 Y13.127 E.02426
G1 X-13.127 Y22.239 E.48182
G1 X-13.776 Y22.239 E.02426
G1 X-22.239 Y13.776 E.4475
G1 X-22.239 Y14.425 E.02426
G1 X-14.425 Y22.239 E.41319
G1 X-15.074 Y22.239 E.02426
G1 X-22.239 Y15.074 E.37888
G1 X-22.239 Y15.723 E.02426
G1 X-15.723 Y22.239 E.34456
G1 X-16.371 Y22.239 E.02426
G1 X-22.239 Y16.371 E.31025
G1 X-22.239 Y17.02 E.02426
G1 X-17.02 Y22.239 E.27594
G1 X-17.669 Y22.239 E.02426
G1 X-22.239 Y17.669 E.24163
G1 X-22.239 Y18.318 E.02426
G1 X-18.318 Y22.239 E.20731
G1 X-18.967 Y22.239 E.02426
G1 X-22.239 Y18.967 E.173
G1 X-22.239 Y19.616 E.02426
G1 X-19.616 Y22.239 E.13869
G1 X-19.959 Y22.239 E.01281
G1 X-20.292 Y22.211 E.01252
G1 X-22.209 Y20.295 E.10133
G1 X-22.182 Y20.471 E.00666
G1 X-22.108 Y20.736 E.01027
G1 X-22 Y20.992 E.0104
G1 X-21.86 Y21.234 E.01044
G1 X-21.694 Y21.454 E.01029
G1 X-20.878 Y22.274 E.04328
M106 S255
M106 P2 S255
;LAYER_CHANGE
;Z:0.4
;HEIGHT:0.2
;BEFORE_LAYER_CHANGE
;0.4
G1 E-3 F3000
;WIPE_START
G1 F3600
G1 X-21.694 Y21.454
G1 X-21.86 Y21.234
G1 X-22 Y20.992
G1 X-22.108 Y20.736
G1 X-22.11 Y20.726
;WIPE_END
;AFTER_LAYER_CHANGE
;0.4
;_SET_FAN_SPEED_CHANGING_LAYER
SET_VELOCITY_LIMIT ACCEL=10000
M140 S55 ; set bed temperature
G17
G3 Z.8 I-.07 J1.215 P1  F30000
G1 X19.987 Y23.155 Z.8
G1 Z.4
G1 E3 F2400
SET_VELOCITY_LIMIT ACCEL=5000
;TYPE:Inner wall
;WIDTH:0.45
G1 F3750
G1 X-19.982 Y23.155 E1.32584
G1 X-20.367 Y23.132 E.01279
G1 X-20.752 Y23.063 E.01298
G1 X-21.129 Y22.945 E.01308
G1 X-21.485 Y22.782 E.01299
G1 X-21.816 Y22.578 E.01292
G1 X-22.124 Y22.331 E.01308
G1 X-22.394 Y22.053 E.01286
G1 X-22.628 Y21.743 E.01291
G1 X-22.825 Y21.402 E.01306
G1 X-22.978 Y21.039 E.01304
G1 X-23.083 Y20.665 E.0129
G1 X-23.143 Y20.271 E.01323
G1 X-23.155 Y19.987 E.00944
G1 X-23.155 Y-19.982 E1.32584
G1 X-23.132 Y-20.367 E.01279
G1 X-23.063 Y-20.752 E.01298
G1 X-22.945 Y-21.129 E.01308
G1 X-22.782 Y-21.485 E.01299
G1 X-22.578 Y-21.816 E.01292
G1 X-22.332 Y-22.124 E.01308
G1 X-22.053 Y-22.394 E.01286
G1 X-21.743 Y-22.628 E.0129
G1 X-21.402 Y-22.825 E.01306
G1 X-21.039 Y-22.978 E.01304
G1 X-20.665 Y-23.083 E.0129
G1 X-20.271 Y-23.143 E.01323
G1 X-19.987 Y-23.155 E.00944
G1 X19.982 Y-23.155 E1.32584
G1 X20.319 Y-23.135 E.01118
G1 X20.756 Y-23.062 E.01471
G1 X21.129 Y-22.945 E.01295
