; HEADER_BLOCK_START
; generated by OrcaSlicer 2.3.1-beta on 2025-11-12 at 17:42:00
; total layer number: 300
; filament_density: 1.24,1.24
; filament_diameter: 1.75,1.75
; max_z_height: 48.04
; HEADER_BLOCK_END

; THUMBNAIL_BLOCK_START

;
; THUMBNAIL_BLOCK_END

; external perimeters extrusion width = 0.42mm
; perimeters extrusion width = 0.45mm
; infill extrusion width = 0.45mm
; solid infill extrusion width = 0.42mm
; top infill extrusion width = 0.42mm
; first layer extrusion width = 0.50mm

; EXECUTABLE_BLOCK_START
EXCLUDE_OBJECT_DEFINE NAME=3DBenchy_id_0_copy_0 CENTER=110,110 POLYGON=[[79.9995,100.816],[80.0025,100.755],[80.0065,100.699],[80.0115,100.646],[80.0135,100.63],[80.0195,100.583],[80.0285,100.525],[80.0455,100.436],[80.0585,100.379],[80.0735,100.322],[80.0805,100.296],[80.0975,100.239],[80.1265,100.155],[80.1405,100.118],[80.1625,100.064],[80.1695,100.047],[80.1855,100.01],[80.2095,99.958],[80.2305,99.916],[80.2635,99.854],[80.2785,99.827],[80.2905,99.806],[80.3395,99.727],[80.3575,99.7],[80.3715,99.679],[80.4055,99.631],[80.4405,99.584],[80.4835,99.531],[80.5085,99.501],[80.5385,99.466],[80.5785,99.423],[80.5925,99.408],[80.6005,99.4],[80.6415,99.359],[80.6615,99.34],[80.7045,99.3],[80.7375,99.271],[80.7825,99.234],[80.7935,99.225],[80.8285,99.197],[80.8865,99.154],[80.9345,99.121],[80.9785,99.092],[81.0445,99.052],[81.0715,99.036],[81.1235,99.008],[81.1485,98.995],[81.1755,98.981],[81.1975,98.97],[81.2535,98.944],[81.3115,98.919],[81.3615,98.899],[81.4165,98.879],[81.4285,98.875],[81.4715,98.861],[81.4845,98.857],[81.5405,98.84],[81.5475,98.838],[81.5845,98.828],[81.5965,98.825],[81.6245,98.818],[81.6405,98.814],[81.7105,98.799],[81.7395,98.794],[81.7685,98.789],[81.7975,98.784],[109.812,94.886],[110.055,94.853],[110.299,94.821],[110.543,94.791],[110.882,94.752],[111.105,94.728],[111.35,94.702],[111.596,94.678],[111.842,94.656],[112.087,94.635],[112.253,94.622],[112.333,94.616],[112.523,94.602],[112.579,94.598],[112.826,94.581],[112.987,94.571],[113.071,94.566],[113.233,94.557],[113.489,94.544],[113.597,94.539],[113.619,94.538],[113.755,94.532],[113.906,94.526],[114.05,94.521],[114.167,94.517],[114.233,94.515],[114.342,94.512],[114.46,94.509],[114.548,94.507],[114.689,94.504],[114.881,94.501],[115.062,94.499],[115.18,94.498],[115.578,94.498],[115.934,94.5],[116.369,94.508],[116.45,94.51],[116.805,94.52],[116.912,94.524],[117.24,94.537],[117.676,94.558],[118.009,94.578],[118.092,94.583],[118.203,94.59],[118.375,94.602],[118.495,94.611],[118.641,94.622],[118.728,94.629],[118.909,94.644],[119.039,94.655],[119.832,94.78],[119.841,94.782],[120.269,94.888],[120.377,94.915],[120.595,94.97],[120.737,95.007],[120.813,95.027],[120.967,95.068],[121.248,95.145],[121.424,95.195],[121.68,95.27],[121.896,95.334],[122.11,95.4],[122.332,95.47],[122.558,95.543],[122.752,95.607],[123.008,95.694],[123.178,95.753],[123.232,95.772],[123.4,95.832],[123.601,95.905],[123.822,95.987],[124.033,96.067],[124.233,96.145],[124.343,96.188],[124.443,96.228],[124.453,96.232],[124.662,96.316],[124.871,96.402],[124.926,96.425],[125.134,96.513],[125.341,96.603],[125.547,96.693],[125.957,96.879],[126.16,96.974],[126.363,97.07],[126.565,97.168],[126.766,97.267],[126.967,97.367],[127.166,97.469],[127.366,97.572],[127.563,97.677],[127.762,97.783],[127.957,97.89],[128.153,97.999],[128.348,98.11],[128.543,98.221],[128.737,98.334],[128.93,98.449],[129.123,98.565],[129.314,98.683],[129.505,98.801],[129.696,98.922],[129.885,99.043],[130.075,99.167],[130.262,99.291],[130.451,99.417],[130.637,99.544],[130.824,99.673],[131.008,99.803],[131.193,99.934],[131.376,100.067],[131.56,100.201],[131.743,100.337],[131.923,100.474],[132.104,100.612],[132.284,100.752],[132.463,100.893],[132.642,101.036],[132.82,101.18],[132.998,101.325],[133.173,101.472],[133.523,101.77],[133.697,101.921],[133.87,102.074],[134.042,102.228],[134.214,102.384],[134.328,102.489],[134.498,102.645],[134.665,102.803],[134.832,102.962],[134.996,103.122],[135.161,103.283],[135.325,103.445],[135.486,103.609],[135.647,103.773],[135.807,103.939],[135.966,104.106],[136.124,104.274],[136.282,104.443],[136.438,104.614],[136.592,104.785],[136.745,104.958],[136.898,105.132],[137.05,105.306],[137.201,105.483],[137.349,105.66],[137.499,105.838],[137.645,106.017],[137.791,106.198],[137.936,106.38],[138.081,106.563],[138.223,106.747],[138.364,106.932],[138.505,107.118],[138.645,107.305],[138.784,107.493],[138.921,107.683],[139.056,107.874],[139.192,108.065],[139.326,108.258],[139.458,108.452],[139.589,108.647],[139.618,108.692],[139.651,108.745],[139.682,108.798],[139.713,108.852],[139.742,108.907],[139.769,108.962],[139.819,109.076],[139.834,109.117],[139.856,109.175],[139.876,109.233],[139.895,109.292],[139.912,109.351],[139.929,109.413],[139.943,109.47],[139.954,109.53],[139.966,109.593],[139.975,109.652],[139.984,109.713],[139.991,109.774],[139.995,109.836],[139.999,109.905],[140,109.966],[140,110.027],[139.999,110.088],[139.996,110.149],[139.992,110.209],[139.986,110.27],[139.977,110.331],[139.968,110.391],[139.958,110.449],[139.945,110.512],[139.932,110.569],[139.916,110.632],[139.901,110.686],[139.883,110.745],[139.863,110.803],[139.842,110.861],[139.82,110.918],[139.797,110.974],[139.771,111.03],[139.744,111.086],[139.716,111.14],[139.686,111.194],[139.655,111.248],[139.624,111.301],[139.589,111.353],[139.472,111.527],[139.339,111.721],[139.206,111.914],[139.071,112.106],[138.936,112.297],[138.797,112.487],[138.659,112.676],[138.52,112.864],[138.38,113.05],[138.237,113.236],[138.095,113.42],[137.951,113.604],[137.659,113.968],[137.51,114.148],[137.361,114.328],[137.21,114.506],[137.06,114.683],[136.907,114.86],[136.752,115.035],[136.597,115.209],[136.482,115.337],[136.326,115.509],[136.167,115.68],[136.008,115.85],[135.848,116.018],[135.688,116.186],[135.526,116.352],[135.2,116.68],[135.034,116.841],[134.869,117.002],[134.703,117.161],[134.535,117.319],[134.368,117.475],[134.199,117.63],[134.028,117.784],[133.857,117.937],[133.686,118.089],[133.512,118.239],[133.338,118.388],[133.164,118.536],[132.987,118.682],[132.811,118.827],[132.632,118.971],[132.454,119.114],[132.275,119.256],[132.093,119.396],[131.911,119.535],[131.728,119.673],[131.544,119.81],[131.359,119.945],[131.173,120.08],[130.799,120.344],[130.611,120.474],[130.421,120.603],[130.23,120.731],[130.039,120.857],[129.846,120.982],[129.653,121.106],[129.458,121.228],[129.263,121.349],[129.067,121.469],[128.869,121.587],[128.672,121.704],[128.472,121.819],[128.272,121.934],[128.072,122.046],[127.87,122.158],[127.595,122.307],[127.395,122.412],[127.196,122.516],[126.996,122.618],[126.796,122.719],[126.595,122.818],[126.392,122.916],[126.19,123.012],[125.987,123.107],[125.783,123.2],[125.579,123.292],[125.374,123.383],[125.169,123.472],[124.963,123.559],[124.756,123.645],[124.666,123.682],[124.549,123.73],[124.341,123.813],[124.122,123.898],[124.003,123.944],[123.704,124.057],[123.493,124.134],[123.293,124.206],[123.071,124.284],[122.884,124.348],[122.869,124.353],[122.656,124.424],[122.443,124.494],[122.206,124.57],[122.005,124.632],[121.979,124.64],[121.751,124.709],[121.523,124.776],[121.295,124.841],[121.142,124.884],[121.066,124.905],[120.924,124.943],[120.706,125.001],[120.606,125.027],[120.488,125.057],[120.269,125.112],[119.843,125.218],[119.316,125.319],[119.306,125.32],[119.05,125.344],[119.003,125.348],[118.81,125.364],[118.725,125.371],[118.561,125.384],[118.481,125.39],[118.134,125.414],[117.688,125.441],[117.649,125.443],[117.264,125.462],[117.126,125.468],[116.778,125.481],[116.564,125.487],[116.343,125.493],[115.907,125.5],[115.521,125.502],[115.177,125.502],[114.877,125.499],[114.821,125.498],[114.599,125.494],[114.456,125.491],[114.338,125.488],[114.166,125.483],[114.076,125.48],[113.93,125.475],[113.752,125.468],[113.728,125.467],[113.57,125.46],[113.462,125.455],[113.332,125.448],[113.133,125.437],[112.889,125.423],[112.644,125.407],[112.629,125.406],[112.342,125.385],[112.096,125.366],[111.849,125.345],[111.667,125.328],[111.603,125.322],[111.423,125.305],[111.179,125.28],[111.111,125.273],[110.935,125.254],[110.619,125.218],[110.373,125.188],[110.204,125.166],[109.882,125.124],[81.8275,121.22],[81.7925,121.215],[81.7425,121.207],[81.6855,121.196],[81.6535,121.189],[81.5965,121.175],[81.5845,121.172],[81.5475,121.162],[81.5365,121.159],[81.4805,121.142],[81.4285,121.125],[81.4165,121.121],[81.3615,121.101],[81.3115,121.081],[81.2535,121.056],[81.1975,121.03],[81.1555,121.009],[81.1045,120.982],[81.0865,120.972],[81.0445,120.948],[80.9925,120.917],[80.9785,120.908],[80.9435,120.885],[80.9345,120.879],[80.8865,120.846],[80.8475,120.817],[80.8395,120.811],[80.7935,120.775],[80.7555,120.744],[80.7485,120.738],[80.7045,120.7],[80.6615,120.66],[80.6405,120.64],[80.5925,120.592],[80.5575,120.555],[80.5385,120.534],[80.5185,120.511],[80.4805,120.466],[80.4445,120.42],[80.4305,120.402],[80.4095,120.374],[80.4065,120.37],[80.3725,120.322],[80.3575,120.3],[80.3425,120.278],[80.3085,120.224],[80.2785,120.173],[80.2505,120.122],[80.2305,120.084],[80.2185,120.06],[80.1955,120.012],[80.1695,119.954],[80.1485,119.903],[80.1275,119.849],[80.1085,119.793],[80.1075,119.79],[80.0905,119.738],[80.0745,119.682],[80.0595,119.625],[80.0455,119.564],[80.0345,119.507],[80.0255,119.454],[80.0245,119.448],[80.0165,119.396],[80.0115,119.353],[80.0085,119.325],[80.0025,119.245],[80.0005,119.208],[79.9995,119.179],[79.9995,100.816]]
M73 P0 R46
M106 S0
M106 P2 S0
;TYPE:Custom
M190 S55
M104 S220
G90
M83
G1 Z2 F6000
G1 X50 Y220 Z0.25 F4800
G1 X70 E3 F900
G1 X200 E10 F1800
G0 Y219.6
G1 X130 E5 F1800
G92 E0
G90
G21
M83 ; use relative distances for extrusion
; filament start gcode
;right_extruder_material: PLA
SET_PRESSURE_ADVANCE ADVANCE=0.025; Override pressure advance value
T0
M106 S0
M106 P2 S0
;LAYER_CHANGE
;Z:0.2
;HEIGHT:0.2
;BEFORE_LAYER_CHANGE
;0.2
G1 E-2 F2700
;AFTER_LAYER_CHANGE
;0.2
;_SET_FAN_SPEED_CHANGING_LAYER
SET_VELOCITY_LIMIT ACCEL=500
EXCLUDE_OBJECT_START NAME=3DBenchy_id_0_copy_0
G1 X106.585 Y112.112 F30000
G1 Z.6
G1 Z.2
G1 E2 F2700
;TYPE:Brim
;WIDTH:0.5
G1 F3000
G1 X106.694 Y112.063 E.00444
G1 X106.808 Y112.057 E.00425
G1 X106.916 Y112.089 E.00419
G1 X107.01 Y112.169 E.00461
G1 X107.066 Y112.275 E.0045
G1 X107.079 Y112.404 E.00482
G1 X107.032 Y112.529 E.00497
G1 X106.95 Y112.617 E.00446
G1 X106.84 Y112.668 E.00454
G1 X106.72 Y112.671 E.00448
G1 X106.622 Y112.637 E.00386
G1 X106.517 Y112.543 E.00524
G1 X106.462 Y112.412 E.00528
G1 X106.462 Y112.312 E.00376
G1 X106.502 Y112.202 E.00435
G1 X106.558 Y112.141 E.00306
G1 E-2 F2700
;WIPE_START
G1 F3000
G1 X106.694 Y112.063
G1 X106.808 Y112.057
G1 X106.916 Y112.089
G1 X107.01 Y112.169
G1 X107.066 Y112.275
G1 X107.079 Y112.404
G1 X107.032 Y112.529
G1 X106.95 Y112.617
G1 X106.84 Y112.668
G1 X106.72 Y112.671
G1 X106.622 Y112.637
G1 X106.517 Y112.543
G1 X106.462 Y112.412
G1 X106.462 Y112.312
G1 X106.502 Y112.202
G1 X106.558 Y112.141
;WIPE_END
G1 X102.255 Y112.193 Z.6 F30000
G1 Z.2
G1 E2 F2700
G1 F3000
G1 X101.8 Y112.209 E.01695
G1 X101.814 Y111.724 E.01809
G1 X101.821 Y111.752 E.00109
G1 X101.871 Y111.871 E.00483
G1 X101.976 Y112.02 E.00676
G1 X102.146 Y112.15 E.00797
G1 X102.218 Y112.178 E.00287
G1 E-2 F2700
;WIPE_START
G1 F3000
G1 X101.8 Y112.209
G1 X101.814 Y111.724
G1 X101.821 Y111.752
G1 X101.871 Y111.871
G1 X101.976 Y112.02
G1 X102.146 Y112.15
G1 X102.218 Y112.178
;WIPE_END
G1 X101.82 Y108.155 Z.6 F30000
G1 Z.2
G1 E2 F2700
G1 F3000
G1 X101.797 Y107.721 E.01617
G1 X102.12 Y107.733 E.01203
G1 X102.349 Y107.734 E.00856
G1 X102.161 Y107.777 E.00719
G1 X101.955 Y107.909 E.00911
G1 X101.884 Y108 E.0043
G1 X101.835 Y108.118 E.00476
G1 E-2 F2700
;WIPE_START
G1 F3000
G1 X101.797 Y107.721
G1 X102.12 Y107.733
G1 X102.349 Y107.734
G1 X102.161 Y107.777
G1 X101.955 Y107.909
G1 X101.884 Y108
G1 X101.835 Y108.118
;WIPE_END
G1 X109.403 Y109.109 Z.6 F30000
G1 X110.185 Y109.211 Z.6
G1 Z.2
G1 E2 F2700
;TYPE:Outer wall
G1 F3000
G1 X110.341 Y108.99 E.01008
G1 X110.605 Y108.475 E.02156
G1 X110.929 Y108.218 E.01542
G1 X111.1 Y108.148 E.00688
G1 X111.285 Y108.138 E.0069
G1 X111.46 Y108.183 E.00674
G1 X111.721 Y108.352 E.0116
G1 X111.911 Y108.611 E.01196
G1 X111.951 Y108.931 E.012
G1 X111.906 Y109.269 E.01267
G1 X111.586 Y109.849 E.02469
G1 X111.215 Y110.461 E.02668
G1 X111.152 Y110.608 E.00595
G1 X111.134 Y110.708 E.00376
G1 X111.141 Y110.785 E.0029
G1 X111.177 Y110.879 E.00375
G1 X111.856 Y112.01 E.04912
G1 X112.004 Y112.341 E.01351
G1 X112.047 Y112.626 E.01075
G1 X112.012 Y112.904 E.01042
G1 X111.894 Y113.139 E.00981
G1 X111.77 Y113.267 E.0066
G1 X111.623 Y113.359 E.00649
G1 X111.385 Y113.435 E.0093
G1 X111.196 Y113.449 E.00708
G1 X111.013 Y113.421 E.00686
G1 X110.85 Y113.356 E.00657
G1 X110.711 Y113.25 E.0065
G1 X110.565 Y113.065 E.00877
G1 X110.46 Y112.878 E.00799
G1 X110.369 Y112.596 E.01107
G1 X110.248 Y112.384 E.00905
G1 X110.103 Y112.208 E.00849
G1 X110.012 Y112.334 E.00577
G1 X109.948 Y112.461 E.0053
G1 X109.947 Y112.605 E.00536
G1 X109.699 Y113.019 E.018
G1 X109.523 Y113.227 E.01015
G1 X109.321 Y113.364 E.00909
G1 X109.109 Y113.416 E.00812
G1 X108.74 Y113.341 E.01405
G1 X108.501 Y113.156 E.01122
G1 X108.352 Y112.779 E.01512
G1 X108.355 Y112.559 E.00819
G1 X108.393 Y112.405 E.00592
G1 X108.56 Y111.939 E.01844
G1 X108.903 Y111.262 E.02824
G1 X109.24 Y110.763 E.02244
G1 X108.998 Y110.389 E.01661
G1 X108.43 Y109.363 E.04367
G1 X108.337 Y109.088 E.01082
G1 X108.321 Y108.767 E.01198
G1 X108.411 Y108.518 E.00986
G1 X108.633 Y108.287 E.01194
G1 X108.801 Y108.2 E.00705
G1 X108.978 Y108.148 E.00688
G1 X109.233 Y108.137 E.00949
G1 X109.415 Y108.2 E.00716
G1 X109.657 Y108.375 E.01113
G1 X109.8 Y108.53 E.00784
G1 X109.872 Y108.721 E.00762
G1 X110.012 Y108.984 E.0111
G1 X110.161 Y109.179 E.00914
G1 E-2 F2700
;WIPE_START
G1 F3000
G1 X110.341 Y108.99
G1 X110.605 Y108.475
G1 X110.929 Y108.218
G1 X111.1 Y108.148
G1 X111.285 Y108.138
G1 X111.46 Y108.183
G1 X111.624 Y108.289
;WIPE_END
G1 X107.819 Y111.564 Z.6 F30000
G1 Z.2
G1 E2 F2700
G1 F3000
G1 X107.935 Y111.767 E.00873
G1 X107.98 Y111.908 E.0055
G1 X108.018 Y112.314 E.01519
G1 X108.008 Y112.531 E.00807
G1 X107.961 Y112.74 E.00799
G1 X107.822 Y113.121 E.01511
G1 X107.74 Y113.253 E.0058
G1 X107.486 Y113.485 E.01282
G1 X107.272 Y113.613 E.00925
G1 X107.037 Y113.685 E.00918
G1 X106.8 Y113.714 E.00889
G1 X106.56 Y113.698 E.00898
G1 X106.321 Y113.639 E.00915
G1 X106.01 Y113.477 E.01307
G1 X105.814 Y113.305 E.0097
G1 X105.573 Y112.917 E.01701
G1 X105.537 Y112.763 E.00592
G1 X105.518 Y112.359 E.01505
G1 X105.536 Y112.144 E.00805
G1 X105.595 Y111.931 E.00822
G1 X105.689 Y111.731 E.00822
G1 X105.821 Y111.546 E.00848
G1 X106.054 Y111.338 E.01163
G1 X106.405 Y111.115 E.01548
G1 X106.551 Y111.064 E.00579
G1 X106.75 Y111.048 E.00743
G1 X107.017 Y111.045 E.00994
G1 X107.26 Y111.114 E.0094
G1 X107.478 Y111.223 E.00908
G1 X107.671 Y111.377 E.00919
G1 X107.794 Y111.533 E.00741
G1 E-2 F2700
;WIPE_START
G1 F3000
G1 X107.935 Y111.767
G1 X107.98 Y111.908
G1 X108.018 Y112.314
G1 X108.008 Y112.531
G1 X107.961 Y112.74
G1 X107.822 Y113.121
G1 X107.74 Y113.253
G1 X107.608 Y113.373
;WIPE_END
G1 X100.798 Y109.927 Z.6 F30000
G1 X99.909 Y109.477 Z.6
G1 Z.2
G1 E2 F2700
;TYPE:Inner wall
G1 F3000
G1 X99.972 Y109.358 E.00504
G1 X100.283 Y109.117 E.01462
G1 X100.282 Y109.667 E.02049
G1 X100.093 Y109.729 E.0074
G1 X99.932 Y109.509 E.01015
G1 E-2 F2700
;WIPE_START
G1 F3000
G1 X99.972 Y109.358
G1 X100.283 Y109.117
G1 X100.282 Y109.667
G1 X100.093 Y109.729
G1 X99.932 Y109.509
;WIPE_END
G1 X100.842 Y107.081 Z.6 F30000
G1 Z.2
G1 E2 F2700
;TYPE:Outer wall
G1 F3000
G1 X100.949 Y106.946 E.00641
G1 X101.088 Y106.839 E.00654
G1 X101.4 Y106.718 E.01246
G1 X101.723 Y106.684 E.01209
G1 X103.347 Y106.721 E.06051
G1 X103.815 Y106.782 E.01755
G1 X104.307 Y106.91 E.01896
G1 X104.711 Y107.108 E.01676
G1 X105.077 Y107.4 E.01741
G1 X105.362 Y107.733 E.01635
G1 X105.624 Y108.179 E.01923
G1 X105.774 Y108.561 E.01532
G1 X105.853 Y108.841 E.01083
G1 X105.951 Y109.463 E.02345
G1 X105.959 Y110.172 E.02638
G1 X105.87 Y110.709 E.02028
G1 X105.756 Y111.005 E.01181
G1 X105.591 Y111.531 E.02053
