; HEADER_BLOCK_START
; generated by Snapmaker Orca 2.3.4 on 2026-06-25 at 16:35:34
; total layer number: 28
; filament_density: 1.24,1.24
; filament_diameter: 1.75,1.75
; max_z_height: 3.39
; HEADER_BLOCK_END

; THUMBNAIL_BLOCK_START

;
; THUMBNAIL_BLOCK_END

; external perimeters extrusion width = 0.25mm
; perimeters extrusion width = 0.30mm
; infill extrusion width = 0.30mm
; solid infill extrusion width = 0.30mm
; top infill extrusion width = 0.30mm
; first layer extrusion width = 0.30mm

; external perimeters extrusion width = 0.25mm
; perimeters extrusion width = 0.30mm
; infill extrusion width = 0.30mm
; solid infill extrusion width = 0.30mm
; top infill extrusion width = 0.30mm
; first layer extrusion width = 0.30mm

; EXECUTABLE_BLOCK_START
EXCLUDE_OBJECT_DEFINE NAME=Assembly_id_0_copy_0 CENTER=110,110 POLYGON=[[90,110],[91.5,102.3],[95.9,95.9],[102.3,91.5],[110,90],[117.7,91.5],[124.1,95.9],[128.5,102.3],[130,110],[128.5,117.7],[124.1,124.1],[117.7,128.5],[110,130],[102.3,128.5],[95.9,124.1],[91.5,117.7],[90,110]]
M73 P0 R79
M106 S0
M106 P2 S0
;TYPE:Custom
M190 S55
M104 S220
G90
M83
G1 Z2 F6000
G1 X50 Y220 Z0.25 F4800
G1 X70 E1.8 F900
G1 X200 E6 F1800
G0 Y219.6
M73 P0 R78
G1 X130 E3 F1800
G92 E0
M106 P3 S255
G90
G21
M83 ; use relative distances for extrusion
T0
; filament start gcode
;right_extruder_material: PLA
SET_PRESSURE_ADVANCE ADVANCE=0.1; Override pressure advance value
G1 Z.15 F30000
M106 S0
M106 P2 S0
;LAYER_CHANGE
;Z:0.15
;HEIGHT:0.15
;BEFORE_LAYER_CHANGE
;0.15
;AFTER_LAYER_CHANGE
;0.15
;_SET_FAN_SPEED_CHANGING_LAYER
SET_VELOCITY_LIMIT ACCEL=1000
G1 E-1 F2700
EXCLUDE_OBJECT_START NAME=Assembly_id_0_copy_0
G1 X105.496 Y91.473 F30000
G1 Z.45
G1 Z.15
G1 E1 F2700
;TYPE:Bottom surface
;WIDTH:0.306529
;HEIGHT:0.15
G1 F4082.54
G1 X105.823 Y91.801 E.00793
G1 X105.823 Y92.189 E.00664
G1 X105.281 Y91.647 E.01313
G1 X104.971 Y91.725 E.00547
G1 X105.823 Y92.577 E.02063
G1 X105.823 Y92.965 E.00664
G1 X104.669 Y91.811 E.02793
G1 X104.373 Y91.903 E.00531
G1 X105.823 Y93.353 E.0351
G1 X105.823 Y93.741 E.00664
G1 X104.083 Y92.001 E.0421
G1 X103.794 Y92.099 E.00523
G1 X105.823 Y94.129 E.04911
G1 X105.823 Y94.517 E.00664
G1 X103.504 Y92.198 E.05612
G1 X103.22 Y92.302 E.00517
G1 X105.823 Y94.905 E.06299
G1 X105.823 Y95.293 E.00664
G1 X102.946 Y92.415 E.06963
G1 X102.671 Y92.529 E.00508
G1 X105.823 Y95.681 E.07627
G1 X105.823 Y95.934 E.00432
G1 X105.714 Y95.959 E.00193
G1 X102.397 Y92.643 E.08025
G1 X102.126 Y92.759 E.00505
G1 X105.691 Y96.324 E.08626
G1 X105.724 Y96.469 E.00254
G1 X105.515 Y96.537 E.00376
G1 X101.866 Y92.887 E.0883
G1 X101.606 Y93.015 E.00496
G1 X105.229 Y96.638 E.08765
G1 X104.947 Y96.744 E.00515
G1 X101.346 Y93.143 E.08712
G1 X101.086 Y93.272 E.00496
G1 X104.665 Y96.851 E.0866
G1 X104.391 Y96.964 E.00508
G1 X100.839 Y93.412 E.08595
G1 X100.593 Y93.554 E.00486
G1 X104.121 Y97.082 E.08537
G1 X103.861 Y97.211 E.00496
G1 X100.347 Y93.696 E.08503
G1 X100.101 Y93.838 E.00486
G1 X103.601 Y97.339 E.08469
G1 X103.341 Y97.467 E.00496
G1 X99.862 Y93.987 E.0842
G1 X99.627 Y94.141 E.00479
G1 X103.091 Y97.604 E.0838
G1 X102.843 Y97.745 E.00487
G1 X99.393 Y94.295 E.08347
G1 X99.164 Y94.453 E.00477
G1 X102.601 Y97.89 E.08316
G1 X102.364 Y98.041 E.00481
G1 X98.939 Y94.616 E.08288
G1 X98.713 Y94.778 E.00475
G1 X102.131 Y98.197 E.0827
G1 X101.899 Y98.352 E.00479
G1 X98.488 Y94.941 E.08253
G1 X98.27 Y95.112 E.00473
G1 X101.67 Y98.511 E.08225
G1 X101.451 Y98.68 E.00473
G1 X98.054 Y95.283 E.08218
G1 X97.844 Y95.461 E.00471
G1 X101.231 Y98.848 E.08194
G1 X101.011 Y99.017 E.00473
G1 X97.637 Y95.643 E.08163
G1 X97.431 Y95.824 E.0047
G1 X100.802 Y99.195 E.08156
G1 X100.593 Y99.374 E.00471
G1 X97.224 Y96.005 E.08151
G1 X97.018 Y96.187 E.0047
G1 X100.031 Y99.2 E.07289
G1 X99.894 Y99.342 E.00338
G1 X99.638 Y99.195 E.00506
G1 X96.821 Y96.378 E.06815
G1 X96.624 Y96.569 E.00469
G1 X98.72 Y98.665 E.05071
G1 X97.802 Y98.135 E.01813
G1 X96.435 Y96.768 E.03306
G1 X96.248 Y96.969 E.0047
G1 X97.213 Y97.934 E.02334
G1 E-1 F2700
;WIPE_START
G1 F4082.54
G1 X96.248 Y96.969
G1 X96.435 Y96.768
G1 X96.691 Y97.024
;WIPE_END
G1 X100.48 Y99.571 Z.45 F30000
G1 Z.15
G1 E1 F2700
;TYPE:Gap infill
;WIDTH:0.199683
G1 F2100
G1 X100.224 Y99.308 E.00384
;WIDTH:0.170636
G1 X100.212 Y99.242 E.00058
;WIDTH:0.155022
G1 X100.2 Y99.175 E.00052
G1 X99.277 Y99.047 F30000
;WIDTH:0.0837814
G1 F2100
G1 X99.134 Y98.938 E.00058
;WIDTH:0.122689
G1 X98.992 Y98.829 E.00101
;WIDTH:0.142143
G1 X98.85 Y98.72 E.00123
G1 E-1 F2700
;WIPE_START
G1 F2100
G1 X98.992 Y98.829
;WIPE_END
G1 X97.441 Y97.987 Z.45 F30000
G1 Z.15
G1 E1 F2700
;WIDTH:0.0643277
G1 F2100
G1 X97.282 Y97.865 E.0004
G1 X96.523 Y97.457 F30000
;WIDTH:0.0862982
G1 F2100
G1 X96.363 Y97.335 E.00068
;WIDTH:0.13024
G1 X96.204 Y97.212 E.00123
;WIDTH:0.15221
G1 X96.044 Y97.09 E.00151
G1 E-1 F2700
;WIPE_START
G1 F2100
G1 X96.204 Y97.212
;WIPE_END
G1 X99.898 Y99.895 Z.45 F30000
G1 Z.15
G1 E1 F2700
;WIDTH:0.329892
G1 F2100
G1 X98.967 Y100.943 E.02602
G1 X98.396 Y101.687 E.01742
G1 X98.098 Y102.127 E.00986
G1 X97.634 Y102.869 E.01625
G1 X97.203 Y103.684 E.01711
G1 X97.002 Y104.11 E.00876
G1 X96.641 Y104.974 E.01738
G1 X96.339 Y105.854 E.01727
;WIDTH:0.332627
G1 X96.078 Y106.708 E.01672
G1 E-1 F2700
;WIPE_START
G1 F2100
G1 X96.339 Y105.854
;WIPE_END
G1 X94.768 Y105.889 Z.45 F30000
G1 Z.15
G1 E1 F2700
;TYPE:Bottom surface
;WIDTH:0.303864
G1 F4122.588
G1 X96.091 Y107.212 E.03171
G1 X96.027 Y107.533 E.00554
G1 X94.188 Y105.694 E.04407
G1 X93.279 Y105.169 E.01778
G1 X95.973 Y107.863 E.06456
G1 X95.929 Y108.203 E.0058
G1 X92.37 Y104.644 E.08527
G1 X91.902 Y104.374 E.00915
G1 X91.856 Y104.514 E.0025
G1 X95.884 Y108.542 E.09651
G1 X95.852 Y108.895 E.00599
G1 X91.775 Y104.817 E.09769
G1 X91.693 Y105.12 E.00531
G1 X95.828 Y109.255 E.09907
G1 X95.814 Y109.625 E.00627
G1 X91.612 Y105.423 E.10068
G1 X91.533 Y105.728 E.00534
G1 X95.814 Y110.009 E.10258
G1 X95.814 Y110.394 E.00651
G1 X91.469 Y106.048 E.10411
G1 X91.405 Y106.369 E.00554
G1 X95.836 Y110.8 E.10617
G1 X95.863 Y111.211 E.00698
G1 X91.342 Y106.689 E.10834
G1 X91.284 Y107.016 E.00561
G1 X95.904 Y111.636 E.11071
G1 X95.965 Y112.082 E.00761
G1 X91.239 Y107.355 E.11324
G1 X91.194 Y107.695 E.0058
G1 X96.042 Y112.542 E.11615
G1 X96.135 Y113.019 E.00823
G1 X91.15 Y108.034 E.11944
G1 X91.119 Y108.388 E.00602
G1 X95.876 Y113.145 E.11396
G1 X95.667 Y113.208 E.00369
G1 X95.717 Y113.37 E.00286
G1 X91.096 Y108.749 E.11073
G1 X91.072 Y109.109 E.00612
G1 X95.507 Y113.545 E.10627
G1 X95.264 Y113.685 E.00477
G1 X91.054 Y109.476 E.10086
G1 X91.054 Y109.86 E.00651
G1 X95.02 Y113.826 E.09503
G1 X94.777 Y113.966 E.00477
G1 X91.054 Y110.244 E.08919
G1 X91.055 Y110.629 E.00652
G1 X94.533 Y114.107 E.08334
G1 X94.29 Y114.248 E.00477
G1 X91.082 Y111.04 E.07686
G1 X91.109 Y111.451 E.00698
G1 X94.046 Y114.388 E.07038
G1 X93.802 Y114.529 E.00477
G1 X91.136 Y111.863 E.06389
G1 X91.194 Y112.305 E.00756
G1 X93.559 Y114.67 E.05665
G1 X93.315 Y114.81 E.00477
G1 X91.253 Y112.748 E.04942
G1 X91.318 Y113.197 E.0077
G1 X93.072 Y114.951 E.04202
G1 X92.828 Y115.092 E.00477
G1 X91.409 Y113.672 E.034
G1 X91.513 Y114.161 E.00846
G1 X92.585 Y115.232 E.02567
G1 X92.341 Y115.373 E.00477
G1 X91.633 Y114.664 E.01697
G1 X91.778 Y115.194 E.0093
G1 X92.186 Y115.602 E.00977
G1 E-1 F2700
;WIPE_START
G1 F4122.588
G1 X91.778 Y115.194
G1 X91.633 Y114.664
G1 X92.251 Y115.283
;WIPE_END
G1 X94.416 Y109.984 Z.45 F30000
G1 X95.79 Y106.622 Z.45
G1 Z.15
G1 E1 F2700
;TYPE:Gap infill
;WIDTH:0.131617
G1 F2100
G1 X95.622 Y106.492 E.00132
;WIDTH:0.109187
G1 X95.453 Y106.363 E.00102
G1 X94.699 Y105.957 F30000
;WIDTH:0.101975
G1 F2100
G1 X94.544 Y105.838 E.00085
G1 E-1 F2700
;WIPE_START
G1 F2100
G1 X94.699 Y105.957
;WIPE_END
G1 X93.15 Y105.114 Z.45 F30000
G1 Z.15
G1 E1 F2700
;WIDTH:0.160871
G1 F2100
G1 X93.009 Y105.005 E.00143
;WIDTH:0.122254
G1 X92.867 Y104.897 E.001
;WIDTH:0.102945
G1 X92.726 Y104.789 E.00079
G1 E-1 F2700
;WIPE_START
G1 F2100
G1 X92.867 Y104.897
;WIPE_END
G1 X97.532 Y101.578 Z.45 F30000
G1 X99.898 Y99.895 Z.45
G1 Z.15
G1 E1 F2700
;WIDTH:0.370039
G1 F2100
G1 X100.19 Y99.591 E.00889
G1 E-1 F2700
;WIPE_START
G1 F2100
G1 X99.898 Y99.895
;WIPE_END
G1 X104.805 Y96.948 Z.45 F30000
G1 X105.89 Y96.297 Z.45
G1 Z.15
G1 E1 F2700
;WIDTH:0.335732
G1 F2100
G1 X106.699 Y96.11 E.01572
;WIDTH:0.328945
G1 X107.673 Y95.92 E.01836
G1 X108.601 Y95.795 E.01733
G1 X109.529 Y95.734 E.01722
G1 X110.462 Y95.734 E.01727
G1 X111.399 Y95.798 E.01737
G1 X112.327 Y95.917 E.01733
G1 X113.675 Y96.199 E.02548
;WIDTH:0.374136
G1 X114.11 Y96.301 E.00951
G1 E-1 F2700
;WIPE_START
G1 F2100
G1 X113.675 Y96.199
;WIPE_END
G1 X118.686 Y98.967 Z.45 F30000
G1 X119.812 Y99.59 Z.45
G1 Z.15
G1 E1 F2700
;WIDTH:0.357469
G1 F2100
G1 X120.105 Y99.898 E.00863
;WIDTH:0.329855
G1 X121.033 Y100.943 E.02593
G1 X121.566 Y101.638 E.01626
G1 X121.871 Y102.08 E.00998
G1 X122.356 Y102.861 E.01706
G1 X122.591 Y103.275 E.00883
G1 X122.976 Y104.055 E.01614
G1 X123.185 Y104.542 E.00984
G1 X123.51 Y105.402 E.01707
G1 X123.793 Y106.288 E.01727
;WIDTH:0.371022
G1 X123.921 Y106.708 E.00929
G1 E-1 F2700
;WIPE_START
G1 F2100
G1 X123.793 Y106.288
;WIPE_END
G1 X127.814 Y104.398 Z.45 F30000
G1 Z.15
G1 E1 F2700
;TYPE:Bottom surface
;WIDTH:0.303915
G1 F4121.815
G1 X128.222 Y104.807 E.00978
G1 X128.372 Y105.341 E.0094
G1 X127.659 Y104.627 E.01709
G1 X127.415 Y104.768 E.00477
G1 X128.49 Y105.843 E.02575
G1 X128.585 Y106.322 E.00829
G1 X127.172 Y104.909 E.03388
G1 X126.928 Y105.049 E.00477
G1 X128.681 Y106.802 E.042
G1 X128.748 Y107.253 E.00773
G1 X126.684 Y105.19 E.04944
G1 X126.441 Y105.331 E.00477
G1 X128.806 Y107.696 E.05668
G1 X128.864 Y108.138 E.00756
G1 X126.197 Y105.471 E.06391
G1 X125.954 Y105.612 E.00477
G1 X128.891 Y108.55 E.0704
G1 X128.918 Y108.961 E.00698
G1 X125.71 Y105.753 E.07689
G1 X125.466 Y105.893 E.00477
G1 X128.945 Y109.372 E.08337
G1 X128.946 Y109.757 E.00652
G1 X125.223 Y106.034 E.08922
G1 X124.979 Y106.175 E.00477
G1 X128.946 Y110.141 E.09506
G1 X128.946 Y110.526 E.00651
G1 X124.735 Y106.315 E.1009
G1 X124.492 Y106.456 E.00477
G1 X128.928 Y110.892 E.10631
G1 X128.904 Y111.253 E.00612
G1 X124.31 Y106.658 E.1101
G1 X124.349 Y106.788 E.00229
G1 X124.124 Y106.856 E.004
G1 X128.881 Y111.613 E.114
G1 X128.85 Y111.967 E.00602
G1 X123.866 Y106.983 E.11945
G1 X123.958 Y107.46 E.00823
G1 X128.806 Y112.307 E.11616
G1 X128.761 Y112.646 E.0058
G1 X124.035 Y107.92 E.11325
G1 X124.096 Y108.366 E.00761
G1 X128.716 Y112.986 E.11072
G1 X128.658 Y113.312 E.00562
G1 X124.137 Y108.791 E.10835
G1 X124.164 Y109.202 E.00698
G1 X128.594 Y113.633 E.10618
G1 X128.531 Y113.953 E.00554
G1 X124.186 Y109.608 E.10412
G1 X124.186 Y109.993 E.00651
G1 X128.467 Y114.274 E.1026
G1 X128.387 Y114.578 E.00534
G1 X124.186 Y110.377 E.10069
G1 X124.171 Y110.747 E.00627
G1 X128.306 Y114.881 E.09909
G1 X128.225 Y115.185 E.00532
G1 X124.148 Y111.107 E.0977
G1 X124.116 Y111.46 E.006
G1 X128.144 Y115.488 E.09652
G1 X128.098 Y115.626 E.00247
G1 X127.625 Y115.353 E.00926
G1 X124.071 Y111.799 E.08516
G1 X124.026 Y112.139 E.0058
G1 X126.716 Y114.828 E.06444
G1 X125.806 Y114.303 E.01779
G1 X123.972 Y112.469 E.04395
G1 X123.909 Y112.79 E.00554
G1 X125.226 Y114.107 E.03158
G1 X124.54 Y113.633 F30000
;TYPE:Gap infill
;WIDTH:0.0852153
G1 F2100
G1 X124.383 Y113.512 E.00066
;WIDTH:0.106103
G1 X124.225 Y113.391 E.00092
G1 E-1 F2700
;WIPE_START
G1 F2100
G1 X124.383 Y113.512
;WIPE_END
G1 X125.45 Y114.158 Z.45 F30000
G1 Z.15
G1 E1 F2700
;WIDTH:0.0643275
G1 F2100
G1 X125.294 Y114.039 E.00039
G1 E-1 F2700
;WIPE_START
G1 F2100
G1 X125.45 Y114.158
;WIPE_END
G1 X127.268 Y115.208 Z.45 F30000
G1 Z.15
G1 E1 F2700
;WIDTH:0.083639
G1 F2100
G1 X127.127 Y115.1 E.00057
;WIDTH:0.122262
G1 X126.986 Y114.992 E.001
;WIDTH:0.141573
G1 X126.844 Y114.883 E.00121
G1 E-1 F2700
;WIPE_START
G1 F2100
G1 X126.986 Y114.992
;WIPE_END
G1 X123.798 Y113.71 Z.45 F30000
G1 Z.15
G1 E1 F2700
;WIDTH:0.367921
G1 F2100
G1 X123.922 Y113.293 E.00912
G1 X123.798 Y113.71 F30000
;WIDTH:0.329829
G1 F2100
G1 X123.36 Y115.026 E.02575
G1 X123.006 Y115.88 E.01716
G1 X122.801 Y116.315 E.00893
G1 X122.355 Y117.142 E.01744
G1 X122.124 Y117.534 E.00843
G1 X121.603 Y118.314 E.01743
G1 X121.033 Y119.057 E.01738
G1 X120.42 Y119.758 E.01728
;WIDTH:0.346428
G1 X120.115 Y120.084 E.00874
;WIDTH:0.360166
G1 X119.809 Y120.409 E.00913
G1 E-1 F2700
;WIPE_START
G1 F2100
G1 X120.115 Y120.084
;WIPE_END
G1 X122.787 Y122.066 Z.45 F30000
G1 Z.15
G1 E1 F2700
;TYPE:Bottom surface
;WIDTH:0.306529
G1 F4082.54
G1 X123.752 Y123.031 E.02335
G1 X123.565 Y123.232 E.0047
G1 X122.198 Y121.865 E.03306
G1 X121.28 Y121.335 E.01813
G1 X123.376 Y123.431 E.05071
G1 X123.179 Y123.622 E.00469
G1 X120.362 Y120.805 E.06815
G1 X120.101 Y120.654 E.00516
G1 X119.968 Y120.799 E.00336
G1 X122.982 Y123.813 E.07293
G1 X122.776 Y123.995 E.0047
G1 X119.407 Y120.626 E.08151
G1 X119.198 Y120.805 E.00471
G1 X122.569 Y124.176 E.08156
G1 X122.362 Y124.358 E.0047
G1 X118.988 Y120.984 E.08163
G1 X118.769 Y121.152 E.00473
G1 X122.156 Y124.539 E.08194
G1 X121.946 Y124.717 E.00471
G1 X118.549 Y121.32 E.08218
G1 X118.33 Y121.489 E.00473
G1 X121.729 Y124.888 E.08225
G1 X121.512 Y125.059 E.00473
G1 X118.101 Y121.648 E.08252
G1 X117.868 Y121.803 E.00479
G1 X121.286 Y125.221 E.08268
G1 X121.06 Y125.383 E.00476
G1 X117.636 Y121.959 E.08284
G1 X117.399 Y122.11 E.00481
G1 X120.834 Y125.545 E.0831
G1 X120.608 Y125.707 E.00476
G1 X117.157 Y122.255 E.0835
G1 X116.909 Y122.396 E.00487
G1 X120.373 Y125.86 E.08381
G1 X120.134 Y126.008 E.00482
G1 X116.658 Y122.533 E.08408
G1 X116.399 Y122.661 E.00496
G1 X119.894 Y126.157 E.08458
G1 X119.655 Y126.306 E.00482
G1 X116.139 Y122.789 E.08508
G1 X115.879 Y122.918 E.00496
G1 X119.413 Y126.451 E.0855
G1 X119.16 Y126.586 E.0049
G1 X115.609 Y123.036 E.08591
G1 X115.335 Y123.149 E.00508
G1 X118.907 Y126.722 E.08643
G1 X118.654 Y126.857 E.0049
G1 X115.053 Y123.256 E.08713
G1 X114.771 Y123.362 E.00515
G1 X118.401 Y126.992 E.08782
G1 X118.136 Y127.115 E.005
G1 X114.485 Y123.463 E.08834
G1 X114.276 Y123.531 E.00376
G1 X114.309 Y123.676 E.00254
G1 X117.87 Y127.236 E.08614
G1 X117.604 Y127.358 E.00501
G1 X114.296 Y124.05 E.08004
G1 X114.177 Y124.078 E.00209
G1 X114.177 Y124.319 E.00413
G1 X117.333 Y127.475 E.07636
G1 X117.057 Y127.587 E.0051
G1 X114.177 Y124.707 E.06969
G1 X114.177 Y125.095 E.00664
G1 X116.781 Y127.699 E.06301
G1 X116.497 Y127.803 E.00517
G1 X114.177 Y125.483 E.05613
G1 X114.177 Y125.871 E.00664
G1 X116.208 Y127.902 E.04915
G1 X115.919 Y128.002 E.00522
G1 X114.177 Y126.259 E.04216
G1 X114.177 Y126.647 E.00664
G1 X115.627 Y128.097 E.03509
G1 X115.327 Y128.186 E.00534
G1 X114.177 Y127.035 E.02785
G1 X114.177 Y127.423 E.00664
G1 X115.028 Y128.274 E.0206
G1 X114.719 Y128.353 E.00545
G1 X114.177 Y127.811 E.01313
G1 X114.177 Y128.199 E.00664
G1 X114.504 Y128.527 E.00793
G1 E-1 F2700
;WIPE_START
G1 F4082.54
G1 X114.177 Y128.199
G1 X114.177 Y127.811
G1 X114.719 Y128.353
G1 X115.028 Y128.274
G1 X114.984 Y128.23
;WIPE_END
G1 X118.104 Y123.431 Z.45 F30000
G1 X119.799 Y120.825 Z.45
G1 Z.15
G1 E1 F2700
;TYPE:Gap infill
;WIDTH:0.135828
G1 F2100
G1 X119.787 Y120.76 E.00042
;WIDTH:0.165042
G1 X119.775 Y120.696 E.00054
;WIDTH:0.203148
G1 X119.775 Y120.678 E.00019
G1 X119.519 Y120.43 E.0038
G1 E-1 F2700
;WIPE_START
G1 F2100
G1 X119.775 Y120.678
G1 X119.775 Y120.696
;WIPE_END
G1 X121.15 Y121.28 Z.45 F30000
G1 Z.15
G1 E1 F2700
;WIDTH:0.161597
G1 F2100
G1 X121.008 Y121.171 E.00145
;WIDTH:0.122689
G1 X120.865 Y121.062 E.00101
;WIDTH:0.103235
G1 X120.723 Y120.953 E.00079
G1 E-1 F2700
;WIPE_START
G1 F2100
G1 X120.865 Y121.062
;WIPE_END
G1 X122.718 Y122.135 Z.45 F30000
G1 Z.15
G1 E1 F2700
;WIDTH:0.103133
G1 F2100
G1 X122.559 Y122.013 E.00089
G1 E-1 F2700
;WIPE_START
G1 F2100
G1 X122.718 Y122.135
;WIPE_END
G1 X123.956 Y122.91 Z.45 F30000
G1 Z.15
G1 E1 F2700
;WIDTH:0.175071
G1 F2100
G1 X123.762 Y122.761 E.00218
;WIDTH:0.131523
G1 X123.62 Y122.652 E.00111
;WIDTH:0.109125
G1 X123.477 Y122.543 E.00086
G1 E-1 F2700
;WIPE_START
G1 F2100
G1 X123.62 Y122.652
;WIPE_END
G1 X117.93 Y123.281 Z.45 F30000
G1 X114.11 Y123.703 Z.45
G1 Z.15
G1 E1 F2700
;WIDTH:0.358596
G1 F2100
G1 X113.294 Y123.892 E.01704
;WIDTH:0.328654
