;generated by ffslicer 2.4.4 05/04/25 17:52:52
;gcode_flavor: marlin
;machine_type: Adventurer 5M Pro
;right_extruder_material: PLA
;right_extruder_material_density: 1.24
;filament_diameter0: 1.75
;right_extruder_temperature: 225
;layer_height: 0.2
;perimeter_shells: 2
;top_solid_layers: 5
;bottom_solid_layers: 3
;fill_density: 15%
;fill_pattern: grid
;base_print_speed: 300
;travel_speed: 500
;platform_temperature: 50
;right_extruder_temperature_raft0: 0
;right_extruder_temperature_reset: 
;left_extruder_temperature_reset: 
;layer_total_count: 10
;start gcode
Q603 MINX-37.50 MAXX109.20 MINY-110.00 MAXY110.00 Z2.10 T0
M140 S50
M104 T0 S225
M104 T1 S0
M107
M107 P101
M204 S10000
M900 K0.027 T0
G90
G28
M106 P102 S255
;layer_count: 10
T0
G92 E0.0000
G1 X109.20 Y110.00 F30000
;preExtrude:0.20
M106 P101 S0
G1 Z0.200 F3000
M204 S20000
G1 X109.20 Y110.00 F30000
M204 S10000
G1 X109.20 Y-110.00 E28.6835 F1200
G1 E27.4835 F2400
G1 Z0.600 F3000
M204 S20000
G1 X47.50 Y2.06 F30000
G1 Z0.200 F3000
G1 E28.6835 F1800
;structure:pre-extrude
G1 X47.50 Y2.06 F30000
M204 S10000
G1 X47.50 Y12.86 E30.0916 F1200
G1 X47.38 Y14.47 E30.3021
G1 X47.04 Y16.28 E30.5423
G1 X46.43 Y18.11 E30.7938
G1 X45.64 Y19.77 E31.0334
G1 X44.59 Y21.40 E31.2862
G1 X43.45 Y22.78 E31.5196
G1 X42.04 Y24.10 E31.7714
G1 X40.43 Y25.25 E32.0294
G1 X38.77 Y26.14 E32.2750
G1 X37.06 Y26.81 E32.5144
G1 X35.32 Y27.25 E32.7484
G1 X33.45 Y27.49 E32.9942
G1 X-33.49 Y27.49 E41.7219
;raft
;layer:0.29
G1 E40.5219 F2400
G1 Z0.690 F3000
M204 S20000
G1 X-32.73 Y16.12 F6000
G1 Z0.290 F3000
G1 E41.7219 F1800
;structure:shell-inner
;extrude_ratio:0.938775
G1 X-32.73 Y16.12 F6000
M204 S7000
G1 X-29.74 Y16.12 E41.8612 F3600
G1 X-29.28 Y16.06 E41.8828
G1 X-28.84 Y15.94 E41.9040
G1 X-28.43 Y15.77 E41.9247
G1 X-28.03 Y15.55 E41.9460
G1 X-27.66 Y15.27 E41.9676
G1 X-27.33 Y14.96 E41.9887
G1 X-27.05 Y14.61 E42.0096
G1 X-26.80 Y14.22 E42.0311
G1 X-26.61 Y13.81 E42.0522
G1 X-26.48 Y13.38 E42.0731
G1 X-26.39 Y12.91 E42.0954
G1 X-26.37 Y12.33 E42.1224
G1 X-26.37 Y10.92 E42.1881
G1 X-26.37 Y9.95 E42.2333
G1 X-26.40 Y9.51 E42.2539
G1 X-26.49 Y9.06 E42.2752
G1 X-26.64 Y8.64 E42.2960
G1 X-26.83 Y8.23 E42.3171
G1 X-27.08 Y7.84 E42.3387
G1 X-27.38 Y7.49 E42.3601
G1 X-27.71 Y7.18 E42.3812
G1 X-28.08 Y6.92 E42.4023
G1 X-28.48 Y6.70 E42.4236
G1 X-28.91 Y6.54 E42.4449
G1 X-29.36 Y6.43 E42.4665
G1 X-30.00 Y6.38 E42.4964
G1 X-32.76 Y6.38 E42.6250
G1 X-33.22 Y6.44 E42.6466
G1 X-33.65 Y6.56 E42.6674
G1 X-34.08 Y6.73 E42.6890
G1 X-34.47 Y6.95 E42.7098
G1 X-34.83 Y7.22 E42.7308
G1 X-35.17 Y7.54 E42.7525
G1 X-35.45 Y7.89 E42.7734
G1 X-35.69 Y8.28 E42.7947
G1 X-35.90 Y8.23 E42.8048
G1 X-35.91 Y8.08 E42.8118
G1 X-36.18 Y7.52 E42.8408
G1 X-36.63 Y7.11 E42.8691
G1 X-36.87 Y7.02 E42.8811
G1 X-36.87 Y2.05 E43.1126
G1 X-36.87 Y-7.95 E43.5785
G1 X-36.87 Y-12.48 E43.7895
G1 X-36.83 Y-13.09 E43.8180
G1 X-36.73 Y-13.59 E43.8418
G1 X-36.56 Y-14.11 E43.8673
G1 X-36.31 Y-14.64 E43.8946
G1 X-36.04 Y-15.06 E43.9178
G1 X-35.65 Y-15.52 E43.9459
G1 X-35.28 Y-15.86 E43.9693
G1 X-34.80 Y-16.21 E43.9970
G1 X-34.33 Y-16.47 E44.0220
G1 X-33.80 Y-16.67 E44.0484
G1 X-33.32 Y-16.79 E44.0715
G1 X-32.77 Y-16.86 E44.0973
G1 X32.77 Y-16.86 E47.1506
G1 X33.32 Y-16.79 E47.1765
G1 X33.85 Y-16.65 E47.2020
G1 X34.35 Y-16.46 E47.2269
G1 X34.87 Y-16.17 E47.2547
G1 X35.31 Y-15.84 E47.2803
G1 X35.71 Y-15.45 E47.3063
G1 X36.06 Y-15.03 E47.3318
G1 X36.32 Y-14.61 E47.3548
G1 X36.58 Y-14.06 E47.3831
G1 X36.73 Y-13.59 E47.4061
G1 X36.83 Y-13.01 E47.4335
G1 X36.87 Y-12.47 E47.4588
G1 X36.87 Y7.00 E48.3658
G1 X36.44 Y7.25 E48.3890
G1 X36.06 Y7.72 E48.4172
G1 X35.87 Y8.31 E48.4460
G1 X35.91 Y8.92 E48.4745
G1 X36.18 Y9.48 E48.5035
G1 X36.80 Y10.05 E48.5427
G1 X36.44 Y10.25 E48.5619
G1 X36.06 Y10.72 E48.5900
G1 X35.87 Y11.31 E48.6189
G1 X35.91 Y11.92 E48.6474
G1 X36.18 Y12.48 E48.6764
G1 X36.63 Y12.89 E48.7047
G1 X36.85 Y12.97 E48.7156
G1 X36.73 Y13.58 E48.7446
G1 X36.54 Y14.15 E48.7726
G1 X36.33 Y14.60 E48.7957
G1 X36.01 Y15.10 E48.8234
G1 X35.69 Y15.49 E48.8469
G1 X35.28 Y15.86 E48.8726
G1 X34.80 Y16.21 E48.9003
G1 X34.33 Y16.47 E48.9253
G1 X33.80 Y16.67 E48.9517
G1 X33.32 Y16.79 E48.9748
G1 X32.77 Y16.86 E49.0006
G1 X-32.77 Y16.86 E52.0539
G1 X-33.36 Y16.78 E52.0817
G1 X-33.89 Y16.64 E52.1072
G1 X-34.36 Y16.45 E52.1308
G1 X-34.87 Y16.17 E52.1579
G1 X-35.32 Y15.83 E52.1842
G1 X-35.68 Y15.49 E52.2073
G1 X-36.04 Y15.06 E52.2334
G1 X-36.34 Y14.57 E52.2602
G1 X-36.56 Y14.11 E52.2839
G1 X-36.74 Y13.55 E52.3113
G1 X-36.85 Y12.98 E52.3384
G1 X-36.44 Y12.75 E52.3603
G1 X-36.31 Y12.59 E52.3699
G1 X-36.12 Y12.65 E52.3792
G1 X-36.10 Y12.99 E52.3950
G1 X-36.01 Y13.44 E52.4164
G1 X-35.86 Y13.86 E52.4372
G1 X-35.67 Y14.27 E52.4582
G1 X-35.42 Y14.66 E52.4798
G1 X-35.15 Y14.99 E52.4997
G1 X-34.79 Y15.32 E52.5224
G1 X-34.44 Y15.57 E52.5425
G1 X-34.02 Y15.80 E52.5648
G1 X-33.59 Y15.96 E52.5862
G1 X-33.15 Y16.07 E52.6073
G1 X-32.73 Y16.12 E52.6270
;extrude_ratio:1
M204 S20000
G1 X-32.70 Y15.70 F6000
;structure:shell-outer
;extrude_ratio:0.938775
G1 X-32.70 Y15.70
M204 S3000
G1 X-29.77 Y15.70 E52.7635 F3600
G1 X-29.37 Y15.65 E52.7823
G1 X-28.98 Y15.54 E52.8011
G1 X-28.61 Y15.39 E52.8197
G1 X-28.26 Y15.19 E52.8385
G1 X-27.93 Y14.95 E52.8575
G1 X-27.64 Y14.68 E52.8760
G1 X-27.39 Y14.36 E52.8949
G1 X-27.17 Y14.02 E52.9138
G1 X-27.01 Y13.65 E52.9326
G1 X-26.89 Y13.27 E52.9511
G1 X-26.81 Y12.87 E52.9701
G1 X-26.79 Y12.32 E52.9958
G1 X-26.79 Y9.97 E53.1053
G1 X-26.82 Y9.57 E53.1239
G1 X-26.90 Y9.17 E53.1429
G1 X-27.03 Y8.79 E53.1617
G1 X-27.20 Y8.43 E53.1802
G1 X-27.42 Y8.09 E53.1991
G1 X-27.68 Y7.78 E53.2179
G1 X-27.98 Y7.51 E53.2367
G1 X-28.30 Y7.28 E53.2551
G1 X-28.66 Y7.08 E53.2743
G1 X-29.03 Y6.94 E53.2927
G1 X-29.43 Y6.84 E53.3119
G1 X-30.01 Y6.80 E53.3390
G1 X-32.73 Y6.80 E53.4657
G1 X-33.13 Y6.85 E53.4845
G1 X-33.52 Y6.96 E53.5034
G1 X-33.89 Y7.11 E53.5220
G1 X-34.24 Y7.31 E53.5408
G1 X-34.57 Y7.55 E53.5598
G1 X-34.86 Y7.82 E53.5782
G1 X-35.11 Y8.14 E53.5971
G1 X-35.32 Y8.48 E53.6158
G1 X-35.49 Y8.84 E53.6343
G1 X-35.61 Y9.23 E53.6533
G1 X-35.69 Y9.63 E53.6723
G1 X-35.71 Y10.36 E53.7063
G1 X-35.71 Y12.53 E53.8074
G1 X-35.68 Y12.93 E53.8261
G1 X-35.60 Y13.32 E53.8447
G1 X-35.47 Y13.71 E53.8638
G1 X-35.30 Y14.07 E53.8824
G1 X-35.08 Y14.41 E53.9012
G1 X-34.84 Y14.70 E53.9188
G1 X-34.52 Y14.99 E53.9389
G1 X-34.22 Y15.21 E53.9562
G1 X-33.84 Y15.41 E53.9762
G1 X-33.46 Y15.56 E53.9953
G1 X-33.07 Y15.66 E54.0140
G1 X-32.70 Y15.70 E54.0313
;extrude_ratio:1
M204 S20000
G1 X-32.80 Y17.28 F6000
;extrude_ratio:0.938775
G1 X-32.80 Y17.28
M204 S3000
G1 X-33.44 Y17.19 E54.0615 F3600
G1 X-34.02 Y17.04 E54.0894
G1 X-34.54 Y16.83 E54.1155
G1 X-35.10 Y16.52 E54.1453
G1 X-35.59 Y16.16 E54.1736
G1 X-35.99 Y15.78 E54.1993
G1 X-36.38 Y15.31 E54.2278
G1 X-36.72 Y14.77 E54.2575
G1 X-36.95 Y14.26 E54.2836
G1 X-37.15 Y13.65 E54.3135
G1 X-37.25 Y13.10 E54.3395
G1 X-37.28 Y12.68 E54.3592
G1 X-37.11 Y12.65 E54.3672
G1 X-36.72 Y12.43 E54.3881
G1 X-36.43 Y12.07 E54.4096
G1 X-36.29 Y11.64 E54.4307
G1 X-36.33 Y11.19 E54.4517
G1 X-36.52 Y10.78 E54.4728
G1 X-36.86 Y10.47 E54.4942
G1 X-37.29 Y10.31 E54.5156
G1 X-37.29 Y9.68 E54.5449
G1 X-37.11 Y9.65 E54.5534
G1 X-36.72 Y9.43 E54.5743
G1 X-36.43 Y9.07 E54.5958
G1 X-36.29 Y8.64 E54.6169
G1 X-36.33 Y8.19 E54.6379
G1 X-36.52 Y7.78 E54.6590
G1 X-36.86 Y7.47 E54.6804
G1 X-37.29 Y7.31 E54.7018
G1 X-37.29 Y1.76 E54.9603
G1 X-37.29 Y-8.24 E55.4262
G1 X-37.29 Y-12.50 E55.6247
G1 X-37.24 Y-13.14 E55.6546
G1 X-37.14 Y-13.69 E55.6806
G1 X-36.95 Y-14.27 E55.7091
G1 X-36.67 Y-14.85 E55.7391
G1 X-36.38 Y-15.31 E55.7644
G1 X-35.96 Y-15.81 E55.7948
G1 X-35.55 Y-16.19 E55.8209
G1 X-35.03 Y-16.56 E55.8506
G1 X-34.50 Y-16.85 E55.8787
G1 X-33.93 Y-17.07 E55.9072
G1 X-33.40 Y-17.20 E55.9326
G1 X-32.80 Y-17.28 E55.9608
G1 X-24.56 Y-17.28 E56.3447
G1 X32.80 Y-17.28 E59.0170
G1 X33.40 Y-17.20 E59.0452
G1 X33.98 Y-17.06 E59.0730
G1 X34.53 Y-16.83 E59.1007
G1 X35.10 Y-16.52 E59.1310
G1 X35.58 Y-16.16 E59.1589
G1 X36.02 Y-15.74 E59.1872
G1 X36.40 Y-15.27 E59.2154
G1 X36.69 Y-14.81 E59.2407
G1 X36.97 Y-14.22 E59.2712
G1 X37.14 Y-13.69 E59.2971
G1 X37.25 Y-13.06 E59.3269
G1 X37.29 Y-12.48 E59.3540
G1 X37.29 Y7.32 E60.2764
G1 X37.11 Y7.35 E60.2849
G1 X36.72 Y7.57 E60.3058
G1 X36.43 Y7.93 E60.3273
G1 X36.29 Y8.36 E60.3484
G1 X36.33 Y8.81 E60.3694
G1 X36.52 Y9.22 E60.3905
G1 X36.86 Y9.53 E60.4119
G1 X37.29 Y9.69 E60.4333
G1 X37.29 Y10.32 E60.4626
G1 X37.11 Y10.35 E60.4711
G1 X36.72 Y10.57 E60.4920
G1 X36.43 Y10.93 E60.5135
G1 X36.29 Y11.36 E60.5346
G1 X36.33 Y11.81 E60.5556
G1 X36.52 Y12.22 E60.5767
G1 X36.86 Y12.53 E60.5981
G1 X37.28 Y12.69 E60.6190
G1 X37.24 Y13.14 E60.6401
G1 X37.14 Y13.69 E60.6661
G1 X36.93 Y14.30 E60.6962
G1 X36.70 Y14.81 E60.7223
G1 X36.35 Y15.35 E60.7522
G1 X35.99 Y15.78 E60.7784
G1 X35.55 Y16.19 E60.8064
G1 X35.03 Y16.56 E60.8361
G1 X34.50 Y16.85 E60.8643
G1 X33.93 Y17.07 E60.8927
G1 X33.40 Y17.20 E60.9181
G1 X32.80 Y17.28 E60.9463
G1 X-32.80 Y17.28 E64.0025
;extrude_ratio:1
M204 S20000
G1 X-28.72 Y16.39 F6000
;structure:infill-solid
;extrude_ratio:0.938775
G1 X-28.72 Y16.39
M204 S5000
G1 X-29.18 Y16.45 E64.0241 F3600
G1 X-29.70 Y16.49 E64.0484
G1 X-32.72 Y16.49 E64.1891
G1 X-33.20 Y16.43 E64.2116
G1 X-33.60 Y16.33 E64.2308
G1 X-34.15 Y16.14 E64.2579
G1 X-34.62 Y15.89 E64.2827
G1 X-35.01 Y15.61 E64.3051
G1 X-35.39 Y15.25 E64.3295
G1 X-35.70 Y14.89 E64.3516
G1 X-35.98 Y14.47 E64.3751
G1 X-36.20 Y14.01 E64.3989
G1 X-36.35 Y13.55 E64.4214
G1 X-36.45 Y13.02 E64.4466
;extrude_ratio:1
M204 S20000
G1 X-36.45 Y12.37 F6000
;extrude_ratio:0.938775
G1 X-36.45 Y12.37
M204 S5000
G1 X-36.09 Y12.26 E64.4641 F3600
G1 X-36.01 Y11.71 E64.4900
G1 X-36.02 Y11.15 E64.5161
G1 X-36.15 Y10.52 E64.5461
;extrude_ratio:1
M204 S20000
G1 X-36.11 Y9.66 F6000
;structure:shell-inner
;extrude_ratio:0.938775
G1 X-36.11 Y9.66
M204 S5000
G1 X-36.31 Y9.58 E64.5561 F3600
G1 X-36.44 Y9.75 E64.5661
G1 X-36.80 Y9.95 E64.5852
G1 X-36.30 Y10.41 E64.6169
G1 X-36.13 Y10.34 E64.6255
G1 X-36.11 Y9.66 E64.6572
;structure:infill-solid
M204 S20000
G1 X-36.11 Y9.53 F6000
M204 S5000
G1 X-36.01 Y9.10 E64.6777 F3600
G1 X-35.87 Y8.67 E64.6988
G1 X-36.14 Y8.35 E64.7183
;extrude_ratio:1
M204 S20000
G1 X-35.58 Y7.56 F6000
;extrude_ratio:0.938775
G1 X-35.58 Y7.56
M204 S5000
G1 X-36.55 Y6.59 E64.7822 F3600
G1 X-36.55 Y5.99 E64.8102
G1 X-35.31 Y7.24 E64.8922
G1 X-35.00 Y6.95 E64.9120
G1 X-36.55 Y5.40 E65.0141
G1 X-36.55 Y4.80 E65.0420
G1 X-34.66 Y6.70 E65.1669
G1 X-34.28 Y6.48 E65.1873
G1 X-36.55 Y4.21 E65.3369
G1 X-36.55 Y3.61 E65.3649
G1 X-33.87 Y6.30 E65.5417
G1 X-33.40 Y6.17 E65.5645
G1 X-36.55 Y3.02 E65.7720
G1 X-36.55 Y2.42 E65.8000
G1 X-32.89 Y6.08 E66.0411
G1 X-32.31 Y6.06 E66.0681
G1 X-36.55 Y1.83 E66.3472
G1 X-36.55 Y1.23 E66.3751
G1 X-31.72 Y6.06 E66.6933
G1 X-31.13 Y6.06 E66.7208
G1 X-36.55 Y0.63 E67.0782
G1 X-36.55 Y0.04 E67.1057
G1 X-30.53 Y6.06 E67.5024
G1 X-29.93 Y6.07 E67.5303
G1 X-36.55 Y-0.56 E67.9668
G1 X-36.55 Y-1.15 E67.9943
G1 X-29.28 Y6.12 E68.4733
;extrude_ratio:1
M204 S20000
G1 X-33.17 Y6.66 F6000
G1 X-33.58 Y6.77
G1 X-33.98 Y6.93
G1 X-34.35 Y7.14
G1 X-34.70 Y7.39
G1 X-35.01 Y7.69
G1 X-35.28 Y8.02
G1 X-35.50 Y8.38
G1 X-35.68 Y8.77
G1 X-35.81 Y9.18
G1 X-35.88 Y9.61
G1 X-35.91 Y10.36
G1 X-35.91 Y12.54
G1 X-35.88 Y12.96
G1 X-35.79 Y13.38
G1 X-35.66 Y13.78
G1 X-35.47 Y14.17
G1 X-35.24 Y14.53
G1 X-34.98 Y14.84
G1 X-34.65 Y15.14
G1 X-34.33 Y15.38
G1 X-33.92 Y15.60
G1 X-33.53 Y15.75
G1 X-33.11 Y15.85
G1 X-28.39 Y16.53
;extrude_ratio:0.938775
G1 X-28.39 Y16.53
M204 S5000
G1 X-27.79 Y16.54 E68.5012 F3600
G1 X-28.28 Y16.05 E68.5335
G1 X-27.90 Y15.84 E68.5537
G1 X-27.19 Y16.54 E68.6002
G1 X-26.60 Y16.54 E68.6277
G1 X-27.56 Y15.58 E68.6909
G1 X-27.24 Y15.31 E68.7104
G1 X-26.00 Y16.54 E68.7918
G1 X-25.41 Y16.54 E68.8193
G1 X-26.95 Y15.00 E68.9207
G1 X-26.70 Y14.65 E68.9408
G1 X-24.81 Y16.54 E69.0653
G1 X-24.22 Y16.54 E69.0928
G1 X-26.48 Y14.28 E69.2417
G1 X-26.30 Y13.86 E69.2630
G1 X-23.62 Y16.54 E69.4395
G1 X-23.02 Y16.54 E69.4675
G1 X-26.16 Y13.41 E69.6740
G1 X-26.08 Y12.90 E69.6981
G1 X-22.43 Y16.54 E69.9382
G1 X-21.83 Y16.54 E69.9662
G1 X-26.05 Y12.32 E70.2442
G1 X-26.05 Y11.73 E70.2717
G1 X-21.24 Y16.54 E70.5886
G1 X-20.64 Y16.54 E70.6166
G1 X-26.05 Y11.13 E70.9730
G1 X-26.05 Y10.54 E71.0005
G1 X-20.05 Y16.54 E71.3958
G1 X-19.45 Y16.54 E71.4237
G1 X-26.05 Y9.94 E71.8586
G1 X-26.13 Y9.27 E71.8900
G1 X-18.86 Y16.54 E72.3690
G1 X-18.26 Y16.54 E72.3969
G1 X-26.39 Y8.42 E72.9323
G1 X-26.56 Y8.08 E72.9500
G1 X-26.83 Y7.65 E72.9736
G1 X-27.15 Y7.27 E72.9968
G1 X-27.51 Y6.94 E73.0195
G1 X-27.92 Y6.65 E73.0429
G1 X-28.42 Y6.39 E73.0692
G1 X-36.55 Y-1.75 E73.6051
G1 X-36.55 Y-2.34 E73.6326
G1 X-17.67 Y16.55 E74.8769
G1 X-17.07 Y16.54 E74.9048
G1 X-36.55 Y-2.94 E76.1882
G1 X-36.55 Y-3.53 E76.2157
G1 X-16.48 Y16.54 E77.5380
G1 X-15.88 Y16.54 E77.5660
G1 X-36.55 Y-4.13 E78.9278
G1 X-36.55 Y-4.72 E78.9553
G1 X-15.28 Y16.54 E80.3564
G1 X-14.69 Y16.54 E80.3838
G1 X-36.55 Y-5.32 E81.8241
G1 X-36.55 Y-5.91 E81.8516
G1 X-14.09 Y16.54 E83.3310
G1 X-13.50 Y16.54 E83.3585
G1 X-36.55 Y-6.51 E84.8771
G1 X-36.55 Y-7.11 E84.9051
G1 X-12.90 Y16.54 E86.4632
G1 X-12.31 Y16.54 E86.4907
G1 X-36.55 Y-7.70 E88.0878
G1 X-36.55 Y-8.30 E88.1157
G1 X-11.71 Y16.54 E89.7523
G1 X-11.12 Y16.54 E89.7798
G1 X-36.55 Y-8.89 E91.4552
G1 X-36.55 Y-9.49 E91.4832
G1 X-10.52 Y16.54 E93.1982
G1 X-9.93 Y16.54 E93.2256
G1 X-36.55 Y-10.08 E94.9795
G1 X-36.55 Y-10.68 E95.0075
G1 X-9.33 Y16.54 E96.8008
G1 X-8.73 Y16.54 E96.8288
G1 X-36.55 Y-11.27 E98.6614
G1 X-36.55 Y-11.87 E98.6893
G1 X-8.14 Y16.54 E100.5611
G1 X-7.54 Y16.54 E100.5891
G1 X-36.55 Y-12.46 E102.5000
G1 X-36.51 Y-13.02 E102.5262
G1 X-6.95 Y16.54 E104.4737
G1 X-6.35 Y16.54 E104.5017
G1 X-36.42 Y-13.52 E106.4825
G1 X-36.27 Y-13.97 E106.5046
G1 X-5.76 Y16.54 E108.5148
G1 X-5.16 Y16.54 E108.5427
G1 X-36.08 Y-14.37 E110.5795
G1 X-35.86 Y-14.75 E110.6000
G1 X-4.57 Y16.54 E112.6615
G1 X-3.97 Y16.54 E112.6895
G1 X-35.60 Y-15.09 E114.7734
G1 X-35.32 Y-15.40 E114.7929
G1 X-3.38 Y16.54 E116.8972
G1 X-2.78 Y16.54 E116.9252
G1 X-35.00 Y-15.68 E119.0480
G1 X-34.66 Y-15.92 E119.0674
G1 X-2.19 Y16.54 E121.2063
G1 X-1.59 Y16.54 E121.2343
G1 X-34.27 Y-16.14 E123.3874
G1 X-33.85 Y-16.31 E123.4085
G1 X-1.00 Y16.54 E125.5728
G1 X-0.40 Y16.54 E125.6008
G1 X-33.39 Y-16.45 E127.7743
G1 X-32.88 Y-16.53 E127.7983
G1 X0.19 Y16.54 E129.9771
G1 X0.79 Y16.54 E130.0051
G1 X-32.30 Y-16.54 E132.1849
G1 X-31.70 Y-16.54 E132.2128
G1 X1.38 Y16.54 E134.3923
G1 X1.98 Y16.54 E134.4203
G1 X-31.11 Y-16.54 E136.6001
G1 X-30.51 Y-16.54 E136.6280
G1 X2.58 Y16.54 E138.8078
G1 X3.17 Y16.54 E138.8353
G1 X-29.92 Y-16.54 E141.0151
G1 X-29.32 Y-16.54 E141.0430
G1 X3.77 Y16.54 E143.2228
G1 X4.36 Y16.54 E143.2503
G1 X-28.73 Y-16.54 E145.4301
G1 X-28.13 Y-16.54 E145.4581
G1 X4.96 Y16.54 E147.6379
G1 X5.55 Y16.54 E147.6653
G1 X-27.54 Y-16.54 E149.8451
G1 X-26.94 Y-16.54 E149.8731
G1 X6.15 Y16.54 E152.0529
G1 X6.74 Y16.54 E152.0804
G1 X-26.34 Y-16.54 E154.2598
G1 X-25.75 Y-16.54 E154.2873
G1 X7.34 Y16.54 E156.4671
G1 X7.93 Y16.54 E156.4946
G1 X-25.15 Y-16.54 E158.6741
G1 X-24.56 Y-16.54 E158.7016
G1 X8.53 Y16.54 E160.8814
G1 X9.13 Y16.54 E160.9093
G1 X-23.96 Y-16.54 E163.0891
G1 X-23.37 Y-16.54 E163.1166
G1 X9.72 Y16.54 E165.2964
G1 X10.32 Y16.54 E165.3243
G1 X-22.77 Y-16.54 E167.5041
G1 X-22.18 Y-16.54 E167.5316
G1 X10.91 Y16.54 E169.7114
G1 X11.51 Y16.54 E169.7394
G1 X-21.58 Y-16.54 E171.9192
G1 X-20.99 Y-16.54 E171.9467
G1 X12.10 Y16.54 E174.1264
G1 X12.70 Y16.54 E174.1544
G1 X-20.39 Y-16.54 E176.3342
G1 X-19.80 Y-16.54 E176.3617
G1 X13.29 Y16.54 E178.5415
G1 X13.89 Y16.54 E178.5694
G1 X-19.20 Y-16.54 E180.7492
G1 X-18.60 Y-16.54 E180.7772
G1 X14.48 Y16.54 E182.9566
G1 X15.08 Y16.54 E182.9846
G1 X-18.01 Y-16.54 E185.1644
G1 X-17.41 Y-16.54 E185.1924
G1 X15.68 Y16.54 E187.3722
G1 X16.27 Y16.54 E187.3996
G1 X-16.82 Y-16.54 E189.5794
G1 X-16.22 Y-16.54 E189.6074
G1 X16.86 Y16.54 E191.7869
G1 X17.46 Y16.54 E191.8148
G1 X-15.63 Y-16.54 E193.9946
G1 X-15.03 Y-16.54 E194.0226
G1 X18.06 Y16.54 E196.2024
G1 X18.65 Y16.54 E196.2298
G1 X-14.44 Y-16.54 E198.4096
G1 X-13.84 Y-16.54 E198.4376
G1 X19.25 Y16.54 E200.6174
G1 X19.84 Y16.54 E200.6449
